examples/showreel/assets/luts/teal-orange.cube
TITLE "teal-orange"
LUT_3D_SIZE 5
DOMAIN_MIN 0 0 0
DOMAIN_MAX 1 1 1
0.000000 0.000000 0.120000
0.190896 0.000000 0.106712
0.441792 0.000000 0.093425
0.692687 0.000000 0.080138
0.943583 0.000000 0.066850
0.000000 0.200298 0.075300
0.227550 0.200387 0.062012
0.478446 0.200475 0.048725
0.729341 0.200564 0.035437
0.980237 0.200652 0.022150
0.013308 0.420596 0.030600
0.264204 0.420685 0.017313
0.515100 0.420773 0.004025
0.761364 0.419318 0.000000
1.000000 0.414054 0.000000
0.046329 0.637519 0.000000
0.301654 0.632071 0.000000
0.556979 0.626623 0.000000
0.812303 0.621175 0.000000
1.000000 0.615728 0.000000
0.097883 0.839192 0.000000
0.353208 0.833744 0.000000
0.608532 0.828296 0.000000
0.863857 0.822848 0.000000
1.000000 0.817400 0.000000
0.000000 0.000000 0.383321
0.194596 0.000000 0.363656
0.445492 0.000000 0.343991
0.696387 0.000000 0.324325
0.947283 0.000000 0.304659
0.000000 0.200328 0.317165
0.231250 0.200417 0.297500
0.482146 0.200505 0.277834
0.733041 0.200594 0.258169
0.983937 0.200682 0.238504
0.017008 0.420626 0.251009
0.267904 0.420715 0.231344
0.518556 0.420722 0.212166
0.765954 0.417652 0.201384
1.000000 0.412204 0.179504
0.051533 0.635669 0.193418
0.306858 0.630221 0.171538
0.562183 0.624773 0.149658
0.817508 0.619325 0.127778
1.000000 0.613877 0.105898
0.103087 0.837342 0.119812
0.358412 0.831894 0.097932
0.613737 0.826446 0.076052
0.869062 0.820998 0.054172
1.000000 0.815550 0.032292
0.000000 0.000000 0.646643
0.198296 0.000000 0.626978
0.449192 0.000000 0.607312
0.700088 0.000000 0.587647
0.950983 0.000000 0.567981
0.000000 0.200358 0.580487
0.234950 0.200447 0.560821
0.485846 0.200535 0.541156
0.736742 0.200624 0.521490
0.987637 0.200712 0.501825
0.020709 0.420656 0.514331
0.271604 0.420745 0.494666
0.520000 0.420000 0.480000
0.771158 0.415802 0.463953
1.000000 0.410354 0.442073
0.056737 0.633819 0.455988
0.312062 0.628371 0.434107
0.567387 0.622923 0.412227
0.822712 0.617475 0.390347
1.000000 0.612027 0.368467
0.108291 0.835492 0.382382
0.363616 0.830044 0.360501
0.618941 0.824596 0.338621
0.874266 0.819148 0.316741
1.000000 0.813700 0.294861
0.000000 0.000000 0.909965
0.201996 0.000000 0.890299
0.452892 0.000000 0.870634
0.703788 0.000000 0.850968
0.954684 0.000000 0.831303
0.000000 0.200388 0.843808
0.238651 0.200477 0.824143
0.489546 0.200565 0.804477
0.740442 0.200654 0.784812
0.991338 0.200743 0.765147
0.024409 0.420686 0.777653
0.275305 0.420775 0.757987
0.521444 0.419278 0.747834
0.776363 0.413952 0.726523
1.000000 0.408504 0.704643
0.061942 0.631969 0.718557
0.317267 0.626521 0.696677
0.572592 0.621073 0.674797
0.827917 0.615625 0.652917
1.000000 0.610177 0.631037
0.113496 0.833642 0.644951
0.368821 0.828194 0.623071
0.624146 0.822746 0.601191
0.879471 0.817298 0.579311
1.000000 0.811850 0.557431
0.000000 0.000000 1.000000
0.205697 0.000000 1.000000
0.456593 0.000000 1.000000
0.707488 0.000000 1.000000
0.958384 0.000000 1.000000
0.000000 0.200418 1.000000
0.242351 0.200507 1.000000
0.493247 0.200596 1.000000
0.744142 0.200684 1.000000
0.995038 0.200773 1.000000
0.028109 0.420716 1.000000
0.278636 0.420682 1.000000
0.526242 0.417550 0.995304
0.781567 0.412102 0.979802
1.000000 0.406654 0.964300
0.067146 0.630119 0.974158
0.322471 0.624671 0.958656
0.577796 0.619223 0.937366
0.833121 0.613775 0.915486
1.000000 0.608327 0.893606
0.118700 0.831792 0.907520
0.374025 0.826344 0.885640
0.629350 0.820896 0.863760
0.884675 0.815448 0.841880
1.000000 0.810000 0.820000
