examples/showreel/assets/luts/teal-orange.cube
TITLE "teal-orange"
LUT_3D_SIZE 9
DOMAIN_MIN 0 0 0
DOMAIN_MAX 1 1 1
0.000000 0.000000 0.120000
0.065448 0.000000 0.113356
0.190896 0.000000 0.106712
0.316344 0.000000 0.100069
0.441792 0.000000 0.093425
0.567239 0.000000 0.086781
0.692687 0.000000 0.080138
0.818135 0.000000 0.073494
0.943583 0.000000 0.066850
0.000000 0.090149 0.097650
0.083775 0.090193 0.091006
0.209223 0.090238 0.084362
0.334671 0.090282 0.077719
0.460118 0.090326 0.071075
0.585566 0.090370 0.064431
0.711014 0.090415 0.057787
0.836462 0.090459 0.051144
0.961910 0.090503 0.044500
0.000000 0.200298 0.075300
0.102102 0.200342 0.068656
0.227550 0.200387 0.062012
0.352998 0.200431 0.055369
0.478446 0.200475 0.048725
0.603893 0.200519 0.042081
0.729341 0.200564 0.035437
0.854789 0.200608 0.028794
0.980237 0.200652 0.022150
0.000000 0.310447 0.052950
0.120429 0.310491 0.046306
0.245877 0.310536 0.039662
0.371325 0.310580 0.033019
0.496772 0.310624 0.026375
0.622220 0.310668 0.019731
0.747668 0.310713 0.013088
0.873116 0.310757 0.006444
0.998464 0.310768 0.000000
0.013308 0.420596 0.030600
0.138756 0.420640 0.023956
0.264204 0.420685 0.017313
0.389652 0.420729 0.010669
0.515100 0.420773 0.004025
0.639238 0.420381 0.000000
0.761364 0.419318 0.000000
0.888412 0.416778 0.000000
1.000000 0.414054 0.000000
0.031635 0.530745 0.008250
0.157083 0.530789 0.001606
0.280012 0.529994 0.000000
0.403539 0.528511 0.000000
0.531201 0.525787 0.000000
0.658864 0.523063 0.000000
0.786526 0.520339 0.000000
0.914189 0.517615 0.000000
1.000000 0.514891 0.000000
0.046329 0.637519 0.000000
0.173991 0.634795 0.000000
0.301654 0.632071 0.000000
0.429316 0.629347 0.000000
0.556979 0.626623 0.000000
0.684641 0.623899 0.000000
0.812303 0.621175 0.000000
0.939966 0.618451 0.000000
1.000000 0.615728 0.000000
0.072106 0.738356 0.000000
0.199768 0.735632 0.000000
0.327431 0.732908 0.000000
0.455093 0.730184 0.000000
0.582755 0.727460 0.000000
0.710418 0.724736 0.000000
0.838080 0.722012 0.000000
0.965743 0.719288 0.000000
1.000000 0.716564 0.000000
0.097883 0.839192 0.000000
0.225545 0.836468 0.000000
0.353208 0.833744 0.000000
0.480870 0.831020 0.000000
0.608532 0.828296 0.000000
0.736195 0.825572 0.000000
0.863857 0.822848 0.000000
0.991520 0.820124 0.000000
1.000000 0.817400 0.000000
0.000000 0.000000 0.251661
0.067298 0.000000 0.241828
0.192746 0.000000 0.231995
0.318194 0.000000 0.222162
0.443642 0.000000 0.212330
0.569090 0.000000 0.202497
0.694537 0.000000 0.192664
0.819985 0.000000 0.182832
0.945433 0.000000 0.172999
0.000000 0.090164 0.218583
0.085625 0.090208 0.208750
0.211073 0.090253 0.198917
0.336521 0.090297 0.189084
0.461969 0.090341 0.179252
0.587416 0.090386 0.169419
0.712864 0.090430 0.159586
0.838312 0.090474 0.149754
0.963760 0.090518 0.139921
0.000000 0.200313 0.185505
0.103952 0.200357 0.175672
0.229400 0.200402 0.165839
0.354848 0.200446 0.156006
0.480296 0.200490 0.146174
0.605743 0.200535 0.136341
0.731191 0.200579 0.126508
0.856639 0.200623 0.116676
0.982087 0.200667 0.106843
0.000000 0.310462 0.152427
0.122279 0.310506 0.142594
0.247727 0.310551 0.132761
0.373175 0.310595 0.122929
0.498623 0.310639 0.113096
0.624071 0.310684 0.103263
0.749518 0.310728 0.093430
0.874966 0.310772 0.083598
0.999186 0.310407 0.076221
0.015158 0.420611 0.119349
0.140606 0.420655 0.109516
0.266054 0.420700 0.099683
0.391502 0.420744 0.089851
0.516950 0.420788 0.080018
0.639960 0.420020 0.075060
0.763352 0.418577 0.070099
0.891014 0.415853 0.059159
1.000000 0.413129 0.048219
0.033485 0.530760 0.086271
0.158608 0.530696 0.077088
0.280734 0.529633 0.073899
0.406141 0.527586 0.066116
0.533804 0.524862 0.055176
0.661466 0.522138 0.044236
0.789129 0.519414 0.033296
0.916791 0.516690 0.022356
1.000000 0.513966 0.011416
0.048931 0.636594 0.062133
0.176593 0.633870 0.051193
0.304256 0.631146 0.040253
0.431918 0.628422 0.029313
0.559581 0.625698 0.018373
0.687243 0.622974 0.007433
0.814906 0.620250 0.000000
0.942568 0.617526 0.000000
1.000000 0.614802 0.000000
0.074708 0.737430 0.025330
0.202370 0.734707 0.014390
0.330033 0.731983 0.003450
0.457695 0.729259 0.000000
0.585358 0.726535 0.000000
0.713020 0.723811 0.000000
0.840683 0.721087 0.000000
0.968345 0.718363 0.000000
1.000000 0.715639 0.000000
0.100485 0.838267 0.000000
0.228147 0.835543 0.000000
0.355810 0.832819 0.000000
0.483472 0.830095 0.000000
0.611135 0.827371 0.000000
0.738797 0.824647 0.000000
0.866460 0.821923 0.000000
0.994122 0.819199 0.000000
1.000000 0.816475 0.000000
0.000000 0.000000 0.383321
0.069148 0.000000 0.373489
0.194596 0.000000 0.363656
0.320044 0.000000 0.353823
0.445492 0.000000 0.343991
0.570940 0.000000 0.334158
0.696387 0.000000 0.324325
0.821835 0.000000 0.314492
0.947283 0.000000 0.304659
0.000000 0.090179 0.350243
0.087475 0.090223 0.340411
0.212923 0.090268 0.330578
0.338371 0.090312 0.320745
0.463819 0.090356 0.310913
0.589267 0.090401 0.301080
0.714715 0.090445 0.291247
0.840162 0.090489 0.281414
0.965610 0.090533 0.271582
0.000000 0.200328 0.317165
0.105802 0.200372 0.307333
0.231250 0.200417 0.297500
0.356698 0.200461 0.287667
0.482146 0.200505 0.277834
0.607594 0.200550 0.268002
0.733041 0.200594 0.258169
0.858489 0.200638 0.248336
0.983937 0.200682 0.238504
0.000000 0.310477 0.284088
0.124129 0.310521 0.274255
0.249577 0.310566 0.264422
0.375025 0.310610 0.254589
0.500473 0.310654 0.244756
0.625921 0.310699 0.234924
0.751368 0.310743 0.225091
0.876816 0.310787 0.215258
0.999908 0.310046 0.210138
0.017008 0.420626 0.251009
0.142456 0.420670 0.241177
0.267904 0.420715 0.231344
0.393352 0.420759 0.221511
0.518556 0.420722 0.212166
0.640682 0.419659 0.208977
0.765954 0.417652 0.201384
0.893616 0.414928 0.190444
1.000000 0.412204 0.179504
0.035335 0.530775 0.217932
0.159330 0.530335 0.211005
0.281456 0.529272 0.207816
0.408743 0.526661 0.197401
0.536406 0.523937 0.186461
0.664068 0.521213 0.175521
0.791731 0.518489 0.164581
0.919393 0.515765 0.153641
1.000000 0.513041 0.142701
0.051533 0.635669 0.193418
0.179196 0.632945 0.182478
0.306858 0.630221 0.171538
0.434520 0.627497 0.160598
0.562183 0.624773 0.149658
0.689845 0.622049 0.138718
0.817508 0.619325 0.127778
0.945170 0.616601 0.116838
1.000000 0.613877 0.105898
0.077310 0.736505 0.156615
0.204973 0.733781 0.145675
0.332635 0.731058 0.134735
0.460297 0.728334 0.123795
0.587960 0.725610 0.112855
0.715622 0.722886 0.101915
0.843285 0.720162 0.090975
0.970947 0.717438 0.080035
1.000000 0.714714 0.069095
0.103087 0.837342 0.119812
0.230750 0.834618 0.108872
0.358412 0.831894 0.097932
0.486074 0.829170 0.086992
0.613737 0.826446 0.076052
0.741399 0.823722 0.065112
0.869062 0.820998 0.054172
0.996724 0.818274 0.043232
1.000000 0.815550 0.032292
0.000000 0.000000 0.514982
0.070998 0.000000 0.505150
0.196446 0.000000 0.495317
0.321894 0.000000 0.485484
0.447342 0.000000 0.475651
0.572790 0.000000 0.465819
0.698238 0.000000 0.455986
0.823685 0.000000 0.446153
0.949133 0.000000 0.436320
0.000000 0.090194 0.481904
0.089325 0.090238 0.472071
0.214773 0.090283 0.462239
0.340221 0.090327 0.452406
0.465669 0.090371 0.442573
0.591117 0.090416 0.432741
0.716565 0.090460 0.422908
0.842012 0.090504 0.413075
0.967460 0.090548 0.403242
0.000000 0.200343 0.448826
0.107652 0.200387 0.438994
0.233100 0.200432 0.429161
0.358548 0.200476 0.419328
0.483996 0.200520 0.409495
0.609444 0.200565 0.399662
0.734892 0.200609 0.389830
0.860340 0.200653 0.379997
0.985787 0.200697 0.370164
0.000531 0.310492 0.415748
0.125979 0.310536 0.405916
0.251427 0.310581 0.396083
0.376875 0.310625 0.386250
0.502323 0.310669 0.376417
0.627771 0.310714 0.366585
0.753219 0.310758 0.356752
0.878504 0.310748 0.347244
1.000000 0.309685 0.344055
0.018858 0.420641 0.382670
0.144306 0.420685 0.372838
0.269754 0.420730 0.363005
0.395202 0.420774 0.353172
0.519278 0.420361 0.346083
0.641404 0.419298 0.342894
0.768556 0.416727 0.332669
0.896219 0.414003 0.321729
1.000000 0.411279 0.310788
0.037185 0.530790 0.349592
0.160052 0.529974 0.344922
0.283683 0.528459 0.339626
0.411346 0.525736 0.328686
0.539008 0.523012 0.317746
0.666671 0.520288 0.306806
0.794333 0.517564 0.295866
0.921995 0.514840 0.284926
1.000000 0.512116 0.273985
0.054135 0.634744 0.324703
0.181798 0.632020 0.313763
0.309460 0.629296 0.302823
0.437123 0.626572 0.291883
0.564785 0.623848 0.280943
0.692448 0.621124 0.270003
0.820110 0.618400 0.259063
0.947773 0.615676 0.248123
1.000000 0.612952 0.237182
0.079912 0.735580 0.287900
0.207575 0.732856 0.276960
0.335237 0.730132 0.266020
0.462900 0.727409 0.255080
0.590562 0.724685 0.244140
0.718225 0.721961 0.233200
0.845887 0.719237 0.222260
0.973549 0.716513 0.211320
1.000000 0.713789 0.200379
0.105689 0.836417 0.251097
0.233352 0.833693 0.240157
0.361014 0.830969 0.229217
0.488677 0.828245 0.218277
0.616339 0.825521 0.207337
0.744002 0.822797 0.196397
0.871664 0.820073 0.185457
0.999327 0.817349 0.174517
1.000000 0.814625 0.163576
0.000000 0.000000 0.646643
0.072848 0.000000 0.636810
0.198296 0.000000 0.626978
0.323744 0.000000 0.617145
0.449192 0.000000 0.607312
0.574640 0.000000 0.597479
0.700088 0.000000 0.587647
0.825536 0.000000 0.577814
0.950983 0.000000 0.567981
0.000000 0.090209 0.613565
0.091175 0.090253 0.603732
0.216623 0.090298 0.593900
0.342071 0.090342 0.584067
0.467519 0.090386 0.574234
0.592967 0.090431 0.564401
0.718415 0.090475 0.554569
0.843863 0.090519 0.544736
0.969310 0.090564 0.534903
0.000000 0.200358 0.580487
0.109502 0.200402 0.570654
0.234950 0.200447 0.560821
0.360398 0.200491 0.550989
0.485846 0.200535 0.541156
0.611294 0.200580 0.531323
0.736742 0.200624 0.521490
0.862190 0.200668 0.511658
0.987637 0.200712 0.501825
0.002382 0.310507 0.547409
0.127829 0.310551 0.537576
0.253277 0.310596 0.527744
0.378725 0.310640 0.517911
0.504173 0.310684 0.508078
0.629621 0.310729 0.498245
0.755069 0.310773 0.488413
0.879226 0.310387 0.481161
1.000000 0.309324 0.477972
0.020709 0.420656 0.514331
0.146156 0.420700 0.504498
0.271604 0.420745 0.494666
0.397052 0.420789 0.484833
0.520000 0.420000 0.480000
0.643496 0.418526 0.474893
0.771158 0.415802 0.463953
0.898821 0.413078 0.453013
1.000000 0.410354 0.442073
0.038648 0.530676 0.482028
0.160774 0.529613 0.478839
0.286285 0.527534 0.470910
0.413948 0.524810 0.459970
0.541610 0.522087 0.449030
0.669273 0.519363 0.438090
0.796935 0.516639 0.427150
0.924598 0.513915 0.416210
1.000000 0.511191 0.405270
0.056737 0.633819 0.455988
0.184400 0.631095 0.445047
0.312062 0.628371 0.434107
0.439725 0.625647 0.423167
0.567387 0.622923 0.412227
0.695050 0.620199 0.401287
0.822712 0.617475 0.390347
0.950375 0.614751 0.379407
1.000000 0.612027 0.368467
0.082514 0.734655 0.419185
0.210177 0.731931 0.408244
0.337839 0.729207 0.397304
0.465502 0.726483 0.386364
0.593164 0.723760 0.375424
0.720827 0.721036 0.364484
0.848489 0.718312 0.353544
0.976152 0.715588 0.342604
1.000000 0.712864 0.331664
0.108291 0.835492 0.382382
0.235954 0.832768 0.371441
0.363616 0.830044 0.360501
0.491279 0.827320 0.349561
0.618941 0.824596 0.338621
0.746604 0.821872 0.327681
0.874266 0.819148 0.316741
1.000000 0.816424 0.305801
1.000000 0.813700 0.294861
0.000000 0.000000 0.778304
0.074698 0.000000 0.768471
0.200146 0.000000 0.758638
0.325594 0.000000 0.748806
0.451042 0.000000 0.738973
0.576490 0.000000 0.729140
0.701938 0.000000 0.719307
0.827386 0.000000 0.709475
0.952834 0.000000 0.699642
0.000000 0.090224 0.745226
0.093026 0.090269 0.735393
0.218473 0.090313 0.725560
0.343921 0.090357 0.715728
0.469369 0.090401 0.705895
0.594817 0.090446 0.696062
0.720265 0.090490 0.686229
0.845713 0.090534 0.676397
0.971161 0.090579 0.666564
0.000000 0.200373 0.712148
0.111352 0.200417 0.702315
0.236800 0.200462 0.692482
0.362248 0.200506 0.682650
0.487696 0.200550 0.672817
0.613144 0.200595 0.662984
0.738592 0.200639 0.653151
0.864040 0.200683 0.643319
0.989488 0.200728 0.633486
0.004232 0.310522 0.679070
0.129680 0.310567 0.669237
0.255127 0.310611 0.659404
0.380575 0.310655 0.649571
0.506023 0.310699 0.639739
0.631471 0.310744 0.629906
0.756919 0.310788 0.620073
0.879948 0.310026 0.615078
1.000000 0.308593 0.610161
0.022559 0.420671 0.645992
0.148006 0.420715 0.636159
0.273454 0.420760 0.626326
0.398596 0.420702 0.617106
0.520722 0.419639 0.613917
0.646098 0.417601 0.606178
0.773760 0.414877 0.595238
0.901423 0.412153 0.584298
1.000000 0.409429 0.573358
0.039370 0.530315 0.615945
0.161496 0.529252 0.612756
0.288888 0.526609 0.602195
0.416550 0.523885 0.591255
0.544213 0.521161 0.580315
0.671875 0.518437 0.569375
0.799537 0.515714 0.558435
0.927200 0.512990 0.547495
1.000000 0.510266 0.536555
0.059340 0.632894 0.587272
0.187002 0.630170 0.576332
0.314665 0.627446 0.565392
0.442327 0.624722 0.554452
0.569990 0.621998 0.543512
0.697652 0.619274 0.532572
0.825314 0.616550 0.521632
0.952977 0.613826 0.510692
1.000000 0.611102 0.499752
0.085117 0.733730 0.550469
0.212779 0.731006 0.539529
0.340442 0.728282 0.528589
0.468104 0.725558 0.517649
0.595767 0.722834 0.506709
0.723429 0.720111 0.495769
0.851091 0.717387 0.484829
0.978754 0.714663 0.473889
1.000000 0.711939 0.462949
0.110894 0.834567 0.513666
0.238556 0.831843 0.502726
0.366219 0.829119 0.491786
0.493881 0.826395 0.480846
0.621544 0.823671 0.469906
0.749206 0.820947 0.458966
0.876868 0.818223 0.448026
1.000000 0.815499 0.437086
1.000000 0.812775 0.426146
0.000000 0.000000 0.909965
0.076549 0.000000 0.900132
0.201996 0.000000 0.890299
0.327444 0.000000 0.880466
0.452892 0.000000 0.870634
0.578340 0.000000 0.860801
0.703788 0.000000 0.850968
0.829236 0.000000 0.841135
0.954684 0.000000 0.831303
0.000000 0.090239 0.876887
0.094876 0.090284 0.867054
0.220323 0.090328 0.857221
0.345771 0.090372 0.847388
0.471219 0.090416 0.837556
0.596667 0.090461 0.827723
0.722115 0.090505 0.817890
0.847563 0.090549 0.808057
0.973011 0.090594 0.798225
0.000000 0.200388 0.843808
0.113203 0.200433 0.833976
0.238651 0.200477 0.824143
0.364098 0.200521 0.814310
0.489546 0.200565 0.804477
0.614994 0.200610 0.794645
0.740442 0.200654 0.784812
0.865890 0.200698 0.774979
0.991338 0.200743 0.765147
0.006082 0.310537 0.810731
0.131530 0.310582 0.800898
0.256978 0.310626 0.791065
0.382425 0.310670 0.781232
0.507873 0.310714 0.771400
0.633321 0.310759 0.761567
0.758544 0.310728 0.752184
0.880670 0.309665 0.748995
1.000000 0.307668 0.741446
0.024409 0.420686 0.777653
0.149857 0.420731 0.767820
0.275305 0.420775 0.757987
0.399318 0.420341 0.751023
0.521444 0.419278 0.747834
0.648700 0.416676 0.737463
0.776363 0.413952 0.726523
0.904025 0.411228 0.715583
1.000000 0.408504 0.704643
0.040092 0.529954 0.749862
0.163827 0.528408 0.744420
0.291490 0.525684 0.733480
0.419152 0.522960 0.722540
0.546815 0.520236 0.711600
0.674477 0.517512 0.700660
0.802140 0.514789 0.689720
0.929802 0.512065 0.678780
1.000000 0.509341 0.667840
0.061942 0.631969 0.718557
0.189604 0.629245 0.707617
0.317267 0.626521 0.696677
0.444929 0.623797 0.685737
0.572592 0.621073 0.674797
0.700254 0.618349 0.663857
0.827917 0.615625 0.652917
0.955579 0.612901 0.641977
1.000000 0.610177 0.631037
0.087719 0.732805 0.681754
0.215381 0.730081 0.670814
0.343044 0.727357 0.659874
0.470706 0.724633 0.648934
0.598369 0.721909 0.637994
0.726031 0.719185 0.627054
0.853694 0.716461 0.616114
0.981356 0.713738 0.605174
1.000000 0.711014 0.594234
0.113496 0.833642 0.644951
0.241158 0.830918 0.634011
0.368821 0.828194 0.623071
0.496483 0.825470 0.612131
0.624146 0.822746 0.601191
0.751808 0.820022 0.590251
0.879471 0.817298 0.579311
1.000000 0.814574 0.568371
1.000000 0.811850 0.557431
0.000000 0.000000 1.000000
0.078399 0.000000 1.000000
0.203847 0.000000 1.000000
0.329294 0.000000 1.000000
0.454742 0.000000 1.000000
0.580190 0.000000 0.992461
0.705638 0.000000 0.982629
0.831086 0.000000 0.972796
0.956534 0.000000 0.962963
0.000000 0.090254 1.000000
0.096726 0.090299 0.998715
0.222174 0.090343 0.988882
0.347621 0.090387 0.979049
0.473069 0.090431 0.969216
0.598517 0.090476 0.959384
0.723965 0.090520 0.949551
0.849413 0.090564 0.939718
0.974861 0.090609 0.929885
0.000000 0.200403 0.975469
0.115053 0.200448 0.965637
0.240501 0.200492 0.955804
0.365948 0.200536 0.945971
0.491396 0.200580 0.936138
0.616844 0.200625 0.926306
0.742292 0.200669 0.916473
0.867740 0.200713 0.906640
0.993188 0.200758 0.896807
0.007932 0.310552 0.942391
0.133380 0.310597 0.932559
0.258828 0.310641 0.922726
0.384275 0.310685 0.912893
0.509723 0.310729 0.903060
0.635171 0.310774 0.893228
0.759266 0.310367 0.886101
0.881392 0.309304 0.882912
1.000000 0.306743 0.872730
0.026259 0.420701 0.909313
0.151707 0.420746 0.899481
0.277155 0.420790 0.889648
0.400040 0.419980 0.884940
0.523640 0.418475 0.879687
0.651302 0.415751 0.868747
0.778965 0.413027 0.857807
0.906627 0.410303 0.846867
1.000000 0.407579 0.835927
0.040814 0.529593 0.883779
0.166430 0.527483 0.875705
0.294092 0.524759 0.864765
0.421754 0.522035 0.853825
0.549417 0.519311 0.842884
0.677079 0.516587 0.831944
0.804742 0.513863 0.821004
0.932404 0.511140 0.810064
1.000000 0.508416 0.799124
0.064544 0.631044 0.849842
0.192207 0.628320 0.838902
0.319869 0.625596 0.827962
0.447531 0.622872 0.817022
0.575194 0.620148 0.806081
0.702856 0.617424 0.795141
0.830519 0.614700 0.784201
0.958181 0.611976 0.773261
1.000000 0.609252 0.762321
0.090321 0.731880 0.813039
0.217984 0.729156 0.802099
0.345646 0.726432 0.791159
0.473308 0.723708 0.780219
0.600971 0.720984 0.769278
0.728633 0.718260 0.758338
0.856296 0.715536 0.747398
0.983958 0.712812 0.736458
1.000000 0.710089 0.725518
0.116098 0.832717 0.776236
0.243761 0.829993 0.765296
0.371423 0.827269 0.754356
0.499085 0.824545 0.743416
0.626748 0.821821 0.732475
0.754410 0.819097 0.721535
0.882073 0.816373 0.710595
1.000000 0.813649 0.699655
1.000000 0.810925 0.688715
0.000000 0.000000 1.000000
0.080249 0.000000 1.000000
0.205697 0.000000 1.000000
0.331145 0.000000 1.000000
0.456593 0.000000 1.000000
0.582040 0.000000 1.000000
0.707488 0.000000 1.000000
0.832936 0.000000 1.000000
0.958384 0.000000 1.000000
0.000000 0.090269 1.000000
0.098576 0.090314 1.000000
0.224024 0.090358 1.000000
0.349472 0.090402 1.000000
0.474919 0.090446 1.000000
0.600367 0.090491 1.000000
0.725815 0.090535 1.000000
0.851263 0.090579 1.000000
0.976711 0.090624 1.000000
0.000000 0.200418 1.000000
0.116903 0.200463 1.000000
0.242351 0.200507 1.000000
0.367799 0.200551 1.000000
0.493247 0.200596 1.000000
0.618694 0.200640 1.000000
0.744142 0.200684 1.000000
0.869590 0.200728 1.000000
0.995038 0.200773 1.000000
0.009782 0.310567 1.000000
0.135230 0.310612 1.000000
0.260678 0.310656 1.000000
0.386126 0.310700 1.000000
0.511574 0.310745 1.000000
0.637021 0.310789 1.000000
0.759988 0.310006 1.000000
0.883453 0.308541 0.998126
1.000000 0.305818 0.990375
0.028109 0.420716 1.000000
0.153557 0.420761 1.000000
0.278636 0.420682 1.000000
0.400762 0.419619 1.000000
0.526242 0.417550 0.995304
0.653905 0.414826 0.987553
0.781567 0.412102 0.979802
0.909230 0.409378 0.972051
1.000000 0.406654 0.964300
0.041536 0.529232 1.000000
0.169032 0.526558 0.992482
0.296694 0.523834 0.984731
0.424357 0.521110 0.976980
0.552019 0.518386 0.969229
0.679682 0.515662 0.961478
0.807344 0.512938 0.952289
0.935007 0.510214 0.941349
1.000000 0.507491 0.930409
0.067146 0.630119 0.974158
0.194809 0.627395 0.966407
0.322471 0.624671 0.958656
0.450134 0.621947 0.948306
0.577796 0.619223 0.937366
0.705459 0.616499 0.926426
0.833121 0.613775 0.915486
0.960784 0.611051 0.904546
1.000000 0.608327 0.893606
0.092923 0.730955 0.944323
0.220586 0.728231 0.933383
0.348248 0.725507 0.922443
0.475911 0.722783 0.911503
0.603573 0.720059 0.900563
0.731236 0.717335 0.889623
0.858898 0.714611 0.878683
0.986561 0.711887 0.867743
1.000000 0.709164 0.856803
0.118700 0.831792 0.907520
0.246363 0.829068 0.896580
0.374025 0.826344 0.885640
0.501688 0.823620 0.874700
0.629350 0.820896 0.863760
0.757013 0.818172 0.852820
0.884675 0.815448 0.841880
1.000000 0.812724 0.830940
1.000000 0.810000 0.820000
