examples/showreel/assets/luts/teal-orange.cube
TITLE "teal-orange"
LUT_3D_SIZE 17
DOMAIN_MIN 0 0 0
DOMAIN_MAX 1 1 1
0.000000 0.000000 0.120000
0.002724 0.000000 0.116678
0.065448 0.000000 0.113356
0.128172 0.000000 0.110034
0.190896 0.000000 0.106712
0.253620 0.000000 0.103391
0.316344 0.000000 0.100069
0.379068 0.000000 0.096747
0.441792 0.000000 0.093425
0.504515 0.000000 0.090103
0.567239 0.000000 0.086781
0.629963 0.000000 0.083459
0.692687 0.000000 0.080138
0.755411 0.000000 0.076816
0.818135 0.000000 0.073494
0.880859 0.000000 0.070172
0.943583 0.000000 0.066850
0.000000 0.035075 0.108825
0.011887 0.035097 0.105503
0.074611 0.035119 0.102181
0.137335 0.035141 0.098859
0.200059 0.035163 0.095537
0.262783 0.035185 0.092216
0.325507 0.035207 0.088894
0.388231 0.035230 0.085572
0.450955 0.035252 0.082250
0.513679 0.035274 0.078928
0.576403 0.035296 0.075606
0.639127 0.035318 0.072284
0.701851 0.035340 0.068962
0.764575 0.035362 0.065641
0.827299 0.035385 0.062319
0.890023 0.035407 0.058997
0.952747 0.035429 0.055675
0.000000 0.090149 0.097650
0.021051 0.090171 0.094328
0.083775 0.090193 0.091006
0.146499 0.090215 0.087684
0.209223 0.090238 0.084362
0.271947 0.090260 0.081041
0.334671 0.090282 0.077719
0.397395 0.090304 0.074397
0.460118 0.090326 0.071075
0.522842 0.090348 0.067753
0.585566 0.090370 0.064431
0.648290 0.090393 0.061109
0.711014 0.090415 0.057787
0.773738 0.090437 0.054466
0.836462 0.090459 0.051144
0.899186 0.090481 0.047822
0.961910 0.090503 0.044500
0.000000 0.145224 0.086475
0.030214 0.145246 0.083153
0.092938 0.145268 0.079831
0.155662 0.145290 0.076509
0.218386 0.145312 0.073187
0.281110 0.145334 0.069866
0.343834 0.145356 0.066544
0.406558 0.145379 0.063222
0.469282 0.145401 0.059900
0.532006 0.145423 0.056578
0.594730 0.145445 0.053256
0.657454 0.145467 0.049934
0.720178 0.145489 0.046613
0.782902 0.145511 0.043291
0.845626 0.145534 0.039969
0.908350 0.145556 0.036647
0.971073 0.145578 0.033325
0.000000 0.200298 0.075300
0.039378 0.200320 0.071978
0.102102 0.200342 0.068656
0.164826 0.200364 0.065334
0.227550 0.200387 0.062012
0.290274 0.200409 0.058691
0.352998 0.200431 0.055369
0.415722 0.200453 0.052047
0.478446 0.200475 0.048725
0.541169 0.200497 0.045403
0.603893 0.200519 0.042081
0.666617 0.200542 0.038759
0.729341 0.200564 0.035437
0.792065 0.200586 0.032116
0.854789 0.200608 0.028794
0.917513 0.200630 0.025472
0.980237 0.200652 0.022150
0.000000 0.255373 0.064125
0.048541 0.255395 0.060803
0.111265 0.255417 0.057481
0.173989 0.255439 0.054159
0.236713 0.255461 0.050838
0.299437 0.255483 0.047516
0.362161 0.255505 0.044194
0.424885 0.255528 0.040872
0.487609 0.255550 0.037550
0.550333 0.255572 0.034228
0.613057 0.255594 0.030906
0.675781 0.255616 0.027584
0.738505 0.255638 0.024262
0.801229 0.255660 0.020941
0.863953 0.255683 0.017619
0.926677 0.255705 0.014297
0.989401 0.255727 0.010975
0.000000 0.310447 0.052950
0.057705 0.310469 0.049628
0.120429 0.310491 0.046306
0.183153 0.310513 0.042984
0.245877 0.310536 0.039662
0.308601 0.310558 0.036341
0.371325 0.310580 0.033019
0.434049 0.310602 0.029697
0.496772 0.310624 0.026375
0.559496 0.310646 0.023053
0.622220 0.310668 0.019731
0.684944 0.310691 0.016409
0.747668 0.310713 0.013088
0.810392 0.310735 0.009766
0.873116 0.310757 0.006444
0.935840 0.310779 0.003122
0.998464 0.310768 0.000000
0.004144 0.365522 0.041775
0.066868 0.365544 0.038453
0.129592 0.365566 0.035131
0.192316 0.365588 0.031809
0.255040 0.365610 0.028487
0.317764 0.365632 0.025166
0.380488 0.365654 0.021844
0.443212 0.365677 0.018522
0.505936 0.365699 0.015200
0.568660 0.365721 0.011878
0.631384 0.365743 0.008556
0.694108 0.365765 0.005234
0.756832 0.365787 0.001913
0.818851 0.365575 0.000000
0.879914 0.365043 0.000000
0.940977 0.364511 0.000000
1.000000 0.363636 0.000000
0.013308 0.420596 0.030600
0.076032 0.420618 0.027278
0.138756 0.420640 0.023956
0.201480 0.420662 0.020634
0.264204 0.420685 0.017313
0.326928 0.420707 0.013991
0.389652 0.420729 0.010669
0.452376 0.420751 0.007347
0.515100 0.420773 0.004025
0.577823 0.420795 0.000703
0.639238 0.420381 0.000000
0.700301 0.419849 0.000000
0.761364 0.419318 0.000000
0.824581 0.418140 0.000000
0.888412 0.416778 0.000000
0.952243 0.415416 0.000000
1.000000 0.414054 0.000000
0.022471 0.475670 0.019425
0.085195 0.475693 0.016103
0.147919 0.475715 0.012781
0.210643 0.475737 0.009459
0.273367 0.475759 0.006137
0.336091 0.475781 0.002816
0.398562 0.475719 0.000000
0.459625 0.475187 0.000000
0.520688 0.474656 0.000000
0.582144 0.474007 0.000000
0.645975 0.472645 0.000000
0.709807 0.471283 0.000000
0.773638 0.469921 0.000000
0.837469 0.468559 0.000000
0.901300 0.467197 0.000000
0.965132 0.465835 0.000000
1.000000 0.464473 0.000000
0.031635 0.530745 0.008250
0.094359 0.530767 0.004928
0.157083 0.530789 0.001606
0.218949 0.530526 0.000000
0.280012 0.529994 0.000000
0.341075 0.529463 0.000000
0.403539 0.528511 0.000000
0.467370 0.527149 0.000000
0.531201 0.525787 0.000000
0.595033 0.524425 0.000000
0.658864 0.523063 0.000000
0.722695 0.521701 0.000000
0.786526 0.520339 0.000000
0.850358 0.518977 0.000000
0.914189 0.517615 0.000000
0.978020 0.516253 0.000000
1.000000 0.514891 0.000000
0.039336 0.585332 0.000000
0.100399 0.584800 0.000000
0.161462 0.584269 0.000000
0.224934 0.583015 0.000000
0.288765 0.581653 0.000000
0.352596 0.580291 0.000000
0.416428 0.578929 0.000000
0.480259 0.577567 0.000000
0.544090 0.576205 0.000000
0.607921 0.574843 0.000000
0.671752 0.573481 0.000000
0.735584 0.572119 0.000000
0.799415 0.570757 0.000000
0.863246 0.569395 0.000000
0.927077 0.568033 0.000000
0.990909 0.566671 0.000000
1.000000 0.565309 0.000000
0.046329 0.637519 0.000000
0.110160 0.636157 0.000000
0.173991 0.634795 0.000000
0.237822 0.633433 0.000000
0.301654 0.632071 0.000000
0.365485 0.630709 0.000000
0.429316 0.629347 0.000000
0.493147 0.627985 0.000000
0.556979 0.626623 0.000000
0.620810 0.625261 0.000000
0.684641 0.623899 0.000000
0.748472 0.622537 0.000000
0.812303 0.621175 0.000000
0.876135 0.619813 0.000000
0.939966 0.618451 0.000000
1.000000 0.617089 0.000000
1.000000 0.615728 0.000000
0.059217 0.687937 0.000000
0.123048 0.686575 0.000000
0.186880 0.685213 0.000000
0.250711 0.683851 0.000000
0.314542 0.682489 0.000000
0.378373 0.681127 0.000000
0.442205 0.679765 0.000000
0.506036 0.678403 0.000000
0.569867 0.677041 0.000000
0.633698 0.675680 0.000000
0.697529 0.674318 0.000000
0.761361 0.672956 0.000000
0.825192 0.671594 0.000000
0.889023 0.670232 0.000000
0.952854 0.668870 0.000000
1.000000 0.667508 0.000000
1.000000 0.666146 0.000000
0.072106 0.738356 0.000000
0.135937 0.736994 0.000000
0.199768 0.735632 0.000000
0.263599 0.734270 0.000000
0.327431 0.732908 0.000000
0.391262 0.731546 0.000000
0.455093 0.730184 0.000000
0.518924 0.728822 0.000000
0.582755 0.727460 0.000000
0.646587 0.726098 0.000000
0.710418 0.724736 0.000000
0.774249 0.723374 0.000000
0.838080 0.722012 0.000000
0.901912 0.720650 0.000000
0.965743 0.719288 0.000000
1.000000 0.717926 0.000000
1.000000 0.716564 0.000000
0.084994 0.788774 0.000000
0.148825 0.787412 0.000000
0.212657 0.786050 0.000000
0.276488 0.784688 0.000000
0.340319 0.783326 0.000000
0.404150 0.781964 0.000000
0.467982 0.780602 0.000000
0.531813 0.779240 0.000000
0.595644 0.777878 0.000000
0.659475 0.776516 0.000000
0.723306 0.775154 0.000000
0.787138 0.773792 0.000000
0.850969 0.772430 0.000000
0.914800 0.771068 0.000000
0.978631 0.769706 0.000000
1.000000 0.768344 0.000000
1.000000 0.766982 0.000000
0.097883 0.839192 0.000000
0.161714 0.837830 0.000000
0.225545 0.836468 0.000000
0.289376 0.835106 0.000000
0.353208 0.833744 0.000000
0.417039 0.832382 0.000000
0.480870 0.831020 0.000000
0.544701 0.829658 0.000000
0.608532 0.828296 0.000000
0.672364 0.826934 0.000000
0.736195 0.825572 0.000000
0.800026 0.824210 0.000000
0.863857 0.822848 0.000000
0.927689 0.821486 0.000000
0.991520 0.820124 0.000000
1.000000 0.818762 0.000000
1.000000 0.817400 0.000000
0.000000 0.000000 0.185830
0.003649 0.000000 0.180914
0.066373 0.000000 0.175998
0.129097 0.000000 0.171081
0.191821 0.000000 0.166165
0.254545 0.000000 0.161248
0.317269 0.000000 0.156332
0.379993 0.000000 0.151416
0.442717 0.000000 0.146499
0.505441 0.000000 0.141583
0.568164 0.000000 0.136667
0.630888 0.000000 0.131750
0.693612 0.000000 0.126834
0.756336 0.000000 0.121917
0.819060 0.000000 0.117001
0.881784 0.000000 0.112085
0.944508 0.000000 0.107168
0.000000 0.035082 0.169291
0.012813 0.035104 0.164375
0.075536 0.035126 0.159459
0.138260 0.035148 0.154542
0.200984 0.035171 0.149626
0.263708 0.035193 0.144709
0.326432 0.035215 0.139793
0.389156 0.035237 0.134877
0.451880 0.035259 0.129960
0.514604 0.035281 0.125044
0.577328 0.035303 0.120128
0.640052 0.035326 0.115211
0.702776 0.035348 0.110295
0.765500 0.035370 0.105378
0.828224 0.035392 0.100462
0.890948 0.035414 0.095546
0.953672 0.035436 0.090629
0.000000 0.090157 0.152752
0.021976 0.090179 0.147836
0.084700 0.090201 0.142920
0.147424 0.090223 0.138003
0.210148 0.090245 0.133087
0.272872 0.090267 0.128170
0.335596 0.090289 0.123254
0.398320 0.090312 0.118338
0.461044 0.090334 0.113421
0.523768 0.090356 0.108505
0.586491 0.090378 0.103589
0.649215 0.090400 0.098672
0.711939 0.090422 0.093756
0.774663 0.090444 0.088840
0.837387 0.090467 0.083923
0.900111 0.090489 0.079007
0.962835 0.090511 0.074090
0.000000 0.145231 0.136213
0.031140 0.145253 0.131297
0.093863 0.145275 0.126381
0.156587 0.145297 0.121464
0.219311 0.145320 0.116548
0.282035 0.145342 0.111631
0.344759 0.145364 0.106715
0.407483 0.145386 0.101799
0.470207 0.145408 0.096882
0.532931 0.145430 0.091966
0.595655 0.145452 0.087050
0.658379 0.145475 0.082133
0.721103 0.145497 0.077217
0.783827 0.145519 0.072301
0.846551 0.145541 0.067384
0.909275 0.145563 0.062468
0.971999 0.145585 0.057551
0.000000 0.200306 0.119674
0.040303 0.200328 0.114758
0.103027 0.200350 0.109842
0.165751 0.200372 0.104925
0.228475 0.200394 0.100009
0.291199 0.200416 0.095092
0.353923 0.200438 0.090176
0.416647 0.200461 0.085260
0.479371 0.200483 0.080343
0.542095 0.200505 0.075427
0.604818 0.200527 0.070511
0.667542 0.200549 0.065594
0.730266 0.200571 0.060678
0.792990 0.200593 0.055762
0.855714 0.200616 0.050845
0.918438 0.200638 0.045929
0.981162 0.200660 0.041012
0.000000 0.255380 0.103135
0.049466 0.255402 0.098219
0.112190 0.255424 0.093303
0.174914 0.255446 0.088386
0.237638 0.255469 0.083470
0.300362 0.255491 0.078554
0.363086 0.255513 0.073637
0.425810 0.255535 0.068721
0.488534 0.255557 0.063804
0.551258 0.255579 0.058888
0.613982 0.255601 0.053972
0.676706 0.255624 0.049055
0.739430 0.255646 0.044139
0.802154 0.255668 0.039223
0.864878 0.255690 0.034306
0.927602 0.255712 0.029390
0.990326 0.255734 0.024473
0.000000 0.310455 0.086596
0.058630 0.310477 0.081680
0.121354 0.310499 0.076764
0.184078 0.310521 0.071847
0.246802 0.310543 0.066931
0.309526 0.310565 0.062015
0.372250 0.310587 0.057098
0.434974 0.310610 0.052182
0.497698 0.310632 0.047265
0.560422 0.310654 0.042349
0.623145 0.310676 0.037433
0.685869 0.310698 0.032516
0.748593 0.310720 0.027600
0.811317 0.310742 0.022684
0.874041 0.310765 0.017767
0.936765 0.310787 0.012851
0.998825 0.310588 0.009263
0.005070 0.365529 0.070057
0.067793 0.365551 0.065141
0.130517 0.365573 0.060225
0.193241 0.365595 0.055308
0.255965 0.365618 0.050392
0.318689 0.365640 0.045476
0.381413 0.365662 0.040559
0.444137 0.365684 0.035643
0.506861 0.365706 0.030726
0.569585 0.365728 0.025810
0.632309 0.365750 0.020894
0.695033 0.365773 0.015977
0.757757 0.365795 0.011061
0.819212 0.365394 0.008682
0.880275 0.364863 0.007088
0.941338 0.364331 0.005493
1.000000 0.363174 0.000978
0.014233 0.420604 0.053518
0.076957 0.420626 0.048602
0.139681 0.420648 0.043686
0.202405 0.420670 0.038769
0.265129 0.420692 0.033853
0.327853 0.420714 0.028937
0.390577 0.420736 0.024020
0.453301 0.420759 0.019104
0.516025 0.420781 0.014187
0.578536 0.420732 0.009696
0.639599 0.420200 0.008102
0.700662 0.419669 0.006507
0.762051 0.419040 0.004457
0.825882 0.417678 0.000000
0.889713 0.416316 0.000000
0.953544 0.414954 0.000000
1.000000 0.413592 0.000000
0.023397 0.475678 0.036979
0.086120 0.475700 0.032063
0.148844 0.475722 0.027147
0.211568 0.475744 0.022230
0.274292 0.475767 0.017314
0.337016 0.475789 0.012397
0.398923 0.475538 0.009116
0.459986 0.475007 0.007521
0.521049 0.474475 0.005927
0.583445 0.473544 0.002465
0.647277 0.472182 0.000000
0.711108 0.470820 0.000000
0.774939 0.469458 0.000000
0.838770 0.468096 0.000000
0.902601 0.466734 0.000000
0.966433 0.465372 0.000000
1.000000 0.464010 0.000000
0.032560 0.530753 0.020440
0.095284 0.530775 0.015524
0.158008 0.530797 0.010608
0.219310 0.530345 0.008535
0.280373 0.529814 0.006941
0.341436 0.529282 0.005346
0.404840 0.528048 0.000474
0.468671 0.526686 0.000000
0.532503 0.525324 0.000000
0.596334 0.523962 0.000000
0.660165 0.522600 0.000000
0.723996 0.521238 0.000000
0.787828 0.519876 0.000000
0.851659 0.518514 0.000000
0.915490 0.517152 0.000000
0.979321 0.515790 0.000000
1.000000 0.514428 0.000000
0.039697 0.585151 0.007955
0.100760 0.584620 0.006360
0.162404 0.583914 0.003952
0.226235 0.582552 0.000000
0.290066 0.581190 0.000000
0.353897 0.579828 0.000000
0.417729 0.578466 0.000000
0.481560 0.577104 0.000000
0.545391 0.575742 0.000000
0.609222 0.574380 0.000000
0.673054 0.573019 0.000000
0.736885 0.571657 0.000000
0.800716 0.570295 0.000000
0.864547 0.568933 0.000000
0.928378 0.567571 0.000000
0.992210 0.566209 0.000000
1.000000 0.564847 0.000000
0.047630 0.637056 0.000000
0.111461 0.635695 0.000000
0.175292 0.634333 0.000000
0.239123 0.632971 0.000000
0.302955 0.631609 0.000000
0.366786 0.630247 0.000000
0.430617 0.628885 0.000000
0.494448 0.627523 0.000000
0.558280 0.626161 0.000000
0.622111 0.624799 0.000000
0.685942 0.623437 0.000000
0.749773 0.622075 0.000000
0.813605 0.620713 0.000000
0.877436 0.619351 0.000000
0.941267 0.617989 0.000000
1.000000 0.616627 0.000000
1.000000 0.615265 0.000000
0.060518 0.687475 0.000000
0.124350 0.686113 0.000000
0.188181 0.684751 0.000000
0.252012 0.683389 0.000000
0.315843 0.682027 0.000000
0.379674 0.680665 0.000000
0.443506 0.679303 0.000000
0.507337 0.677941 0.000000
0.571168 0.676579 0.000000
0.634999 0.675217 0.000000
0.698831 0.673855 0.000000
0.762662 0.672493 0.000000
0.826493 0.671131 0.000000
0.890324 0.669769 0.000000
0.954155 0.668407 0.000000
1.000000 0.667045 0.000000
1.000000 0.665683 0.000000
0.073407 0.737893 0.000000
0.137238 0.736531 0.000000
0.201069 0.735169 0.000000
0.264900 0.733807 0.000000
0.328732 0.732445 0.000000
0.392563 0.731083 0.000000
0.456394 0.729721 0.000000
0.520225 0.728359 0.000000
0.584057 0.726997 0.000000
0.647888 0.725635 0.000000
0.711719 0.724273 0.000000
0.775550 0.722911 0.000000
0.839382 0.721549 0.000000
0.903213 0.720187 0.000000
0.967044 0.718825 0.000000
1.000000 0.717463 0.000000
1.000000 0.716101 0.000000
0.086295 0.788311 0.000000
0.150126 0.786949 0.000000
0.213958 0.785587 0.000000
0.277789 0.784225 0.000000
0.341620 0.782863 0.000000
0.405451 0.781501 0.000000
0.469283 0.780139 0.000000
0.533114 0.778777 0.000000
0.596945 0.777415 0.000000
0.660776 0.776053 0.000000
0.724608 0.774692 0.000000
0.788439 0.773330 0.000000
0.852270 0.771968 0.000000
0.916101 0.770606 0.000000
0.979932 0.769244 0.000000
1.000000 0.767882 0.000000
1.000000 0.766520 0.000000
0.099184 0.838729 0.000000
0.163015 0.837368 0.000000
0.226846 0.836006 0.000000
0.290677 0.834644 0.000000
0.354509 0.833282 0.000000
0.418340 0.831920 0.000000
0.482171 0.830558 0.000000
0.546002 0.829196 0.000000
0.609834 0.827834 0.000000
0.673665 0.826472 0.000000
0.737496 0.825110 0.000000
0.801327 0.823748 0.000000
0.865159 0.822386 0.000000
0.928990 0.821024 0.000000
0.992821 0.819662 0.000000
1.000000 0.818300 0.000000
1.000000 0.816938 0.000000
0.000000 0.000000 0.251661
0.004574 0.000000 0.246744
0.067298 0.000000 0.241828
0.130022 0.000000 0.236912
0.192746 0.000000 0.231995
0.255470 0.000000 0.227079
0.318194 0.000000 0.222162
0.380918 0.000000 0.217246
0.443642 0.000000 0.212330
0.506366 0.000000 0.207413
0.569090 0.000000 0.202497
0.631813 0.000000 0.197581
0.694537 0.000000 0.192664
0.757261 0.000000 0.187748
0.819985 0.000000 0.182832
0.882709 0.000000 0.177915
0.945433 0.000000 0.172999
0.000000 0.035090 0.235122
0.013738 0.035112 0.230205
0.076462 0.035134 0.225289
0.139185 0.035156 0.220373
0.201909 0.035178 0.215456
0.264633 0.035200 0.210540
0.327357 0.035222 0.205624
0.390081 0.035245 0.200707
0.452805 0.035267 0.195791
0.515529 0.035289 0.190874
0.578253 0.035311 0.185958
0.640977 0.035333 0.181042
0.703701 0.035355 0.176125
0.766425 0.035377 0.171209
0.829149 0.035400 0.166293
0.891873 0.035422 0.161376
0.954597 0.035444 0.156460
0.000000 0.090164 0.218583
0.022901 0.090186 0.213666
0.085625 0.090208 0.208750
0.148349 0.090230 0.203834
0.211073 0.090253 0.198917
0.273797 0.090275 0.194001
0.336521 0.090297 0.189084
0.399245 0.090319 0.184168
0.461969 0.090341 0.179252
0.524693 0.090363 0.174335
0.587416 0.090386 0.169419
0.650140 0.090408 0.164503
0.712864 0.090430 0.159586
0.775588 0.090452 0.154670
0.838312 0.090474 0.149754
0.901036 0.090496 0.144837
0.963760 0.090518 0.139921
0.000000 0.145239 0.202044
0.032065 0.145261 0.197127
0.094788 0.145283 0.192211
0.157512 0.145305 0.187295
0.220236 0.145327 0.182378
0.282960 0.145349 0.177462
0.345684 0.145371 0.172546
0.408408 0.145394 0.167629
0.471132 0.145416 0.162713
0.533856 0.145438 0.157796
0.596580 0.145460 0.152880
0.659304 0.145482 0.147964
0.722028 0.145504 0.143047
0.784752 0.145526 0.138131
0.847476 0.145549 0.133215
0.910200 0.145571 0.128298
0.972924 0.145593 0.123382
0.000000 0.200313 0.185505
0.041228 0.200335 0.180588
0.103952 0.200357 0.175672
0.166676 0.200379 0.170756
0.229400 0.200402 0.165839
0.292124 0.200424 0.160923
0.354848 0.200446 0.156006
0.417572 0.200468 0.151090
0.480296 0.200490 0.146174
0.543020 0.200512 0.141257
0.605743 0.200535 0.136341
0.668467 0.200557 0.131425
0.731191 0.200579 0.126508
0.793915 0.200601 0.121592
0.856639 0.200623 0.116676
0.919363 0.200645 0.111759
0.982087 0.200667 0.106843
0.000000 0.255388 0.168966
0.050392 0.255410 0.164049
0.113115 0.255432 0.159133
0.175839 0.255454 0.154217
0.238563 0.255476 0.149300
0.301287 0.255498 0.144384
0.364011 0.255520 0.139468
0.426735 0.255543 0.134551
0.489459 0.255565 0.129635
0.552183 0.255587 0.124718
0.614907 0.255609 0.119802
0.677631 0.255631 0.114886
0.740355 0.255653 0.109969
0.803079 0.255675 0.105053
0.865803 0.255698 0.100137
0.928527 0.255720 0.095220
0.991251 0.255742 0.090304
0.000000 0.310462 0.152427
0.059555 0.310484 0.147510
0.122279 0.310506 0.142594
0.185003 0.310528 0.137678
0.247727 0.310551 0.132761
0.310451 0.310573 0.127845
0.373175 0.310595 0.122929
0.435899 0.310617 0.118012
0.498623 0.310639 0.113096
0.561347 0.310661 0.108179
0.624071 0.310684 0.103263
0.686794 0.310706 0.098347
0.749518 0.310728 0.093430
0.812242 0.310750 0.088514
0.874966 0.310772 0.083598
0.937690 0.310794 0.078681
0.999186 0.310407 0.076221
0.005995 0.365537 0.135888
0.068719 0.365559 0.130971
0.131442 0.365581 0.126055
0.194166 0.365603 0.121139
0.256890 0.365625 0.116222
0.319614 0.365647 0.111306
0.382338 0.365669 0.106390
0.445062 0.365692 0.101473
0.507786 0.365714 0.096557
0.570510 0.365736 0.091640
0.633234 0.365758 0.086724
0.695958 0.365780 0.081808
0.758510 0.365745 0.077235
0.819573 0.365214 0.075641
0.880636 0.364682 0.074046
0.941957 0.364073 0.072091
1.000000 0.362711 0.066621
0.015158 0.420611 0.119349
0.077882 0.420633 0.114432
0.140606 0.420655 0.109516
0.203330 0.420677 0.104600
0.266054 0.420700 0.099683
0.328778 0.420722 0.094767
0.391502 0.420744 0.089851
0.454226 0.420766 0.084934
0.516950 0.420788 0.080018
0.578897 0.420552 0.076655
0.639960 0.420020 0.075060
0.701023 0.419488 0.073466
0.763352 0.418577 0.070099
0.827183 0.417215 0.064629
0.891014 0.415853 0.059159
0.954845 0.414491 0.053689
1.000000 0.413129 0.048219
0.024322 0.475686 0.102810
0.087046 0.475708 0.097893
0.149769 0.475730 0.092977
0.212493 0.475752 0.088061
0.275217 0.475774 0.083144
0.337941 0.475796 0.078228
0.399284 0.475358 0.076074
0.460347 0.474826 0.074480
0.521410 0.474295 0.072885
0.584746 0.473081 0.068108
0.648578 0.471720 0.062638
0.712409 0.470358 0.057168
0.776240 0.468996 0.051698
0.840071 0.467634 0.046228
0.903903 0.466272 0.040758
0.967734 0.464910 0.035288
1.000000 0.463548 0.029818
0.033485 0.530760 0.086271
0.096209 0.530782 0.081354
0.158608 0.530696 0.077088
0.219671 0.530165 0.075494
0.280734 0.529633 0.073899
0.342310 0.528948 0.071586
0.406141 0.527586 0.066116
0.469972 0.526224 0.060646
0.533804 0.524862 0.055176
0.597635 0.523500 0.049706
0.661466 0.522138 0.044236
0.725297 0.520776 0.038766
0.789129 0.519414 0.033296
0.852960 0.518052 0.027826
0.916791 0.516690 0.022356
0.980622 0.515328 0.016886
1.000000 0.513966 0.011416
0.040058 0.584971 0.074913
0.101121 0.584440 0.073319
0.163705 0.583452 0.069595
0.227536 0.582090 0.064125
0.291367 0.580728 0.058655
0.355199 0.579366 0.053185
0.419030 0.578004 0.047715
0.482861 0.576642 0.042245
0.546692 0.575280 0.036775
0.610523 0.573918 0.031305
0.674355 0.572556 0.025835
0.738186 0.571194 0.020365
0.802017 0.569832 0.014895
0.865848 0.568470 0.009425
0.929680 0.567108 0.003955
0.993511 0.565746 0.000000
1.000000 0.564384 0.000000
0.048931 0.636594 0.062133
0.112762 0.635232 0.056663
0.176593 0.633870 0.051193
0.240425 0.632508 0.045723
0.304256 0.631146 0.040253
0.368087 0.629784 0.034783
0.431918 0.628422 0.029313
0.495749 0.627060 0.023843
0.559581 0.625698 0.018373
0.623412 0.624336 0.012903
0.687243 0.622974 0.007433
0.751074 0.621612 0.001963
0.814906 0.620250 0.000000
0.878737 0.618888 0.000000
0.942568 0.617526 0.000000
1.000000 0.616164 0.000000
1.000000 0.614802 0.000000
0.061819 0.687012 0.043732
0.125651 0.685650 0.038262
0.189482 0.684288 0.032792
0.253313 0.682926 0.027322
0.317144 0.681564 0.021852
0.380976 0.680202 0.016382
0.444807 0.678840 0.010912
0.508638 0.677478 0.005442
0.572469 0.676116 0.000000
0.636300 0.674754 0.000000
0.700132 0.673393 0.000000
0.763963 0.672031 0.000000
0.827794 0.670669 0.000000
0.891625 0.669307 0.000000
0.955457 0.667945 0.000000
1.000000 0.666583 0.000000
1.000000 0.665221 0.000000
0.074708 0.737430 0.025330
0.138539 0.736068 0.019860
0.202370 0.734707 0.014390
0.266202 0.733345 0.008920
0.330033 0.731983 0.003450
0.393864 0.730621 0.000000
0.457695 0.729259 0.000000
0.521526 0.727897 0.000000
0.585358 0.726535 0.000000
0.649189 0.725173 0.000000
0.713020 0.723811 0.000000
0.776851 0.722449 0.000000
0.840683 0.721087 0.000000
0.904514 0.719725 0.000000
0.968345 0.718363 0.000000
1.000000 0.717001 0.000000
1.000000 0.715639 0.000000
0.087596 0.787849 0.006929
0.151428 0.786487 0.001459
0.215259 0.785125 0.000000
0.279090 0.783763 0.000000
0.342921 0.782401 0.000000
0.406753 0.781039 0.000000
0.470584 0.779677 0.000000
0.534415 0.778315 0.000000
0.598246 0.776953 0.000000
0.662077 0.775591 0.000000
0.725909 0.774229 0.000000
0.789740 0.772867 0.000000
0.853571 0.771505 0.000000
0.917402 0.770143 0.000000
0.981234 0.768781 0.000000
1.000000 0.767419 0.000000
1.000000 0.766057 0.000000
0.100485 0.838267 0.000000
0.164316 0.836905 0.000000
0.228147 0.835543 0.000000
0.291979 0.834181 0.000000
0.355810 0.832819 0.000000
0.419641 0.831457 0.000000
0.483472 0.830095 0.000000
0.547303 0.828733 0.000000
0.611135 0.827371 0.000000
0.674966 0.826009 0.000000
0.738797 0.824647 0.000000
0.802628 0.823285 0.000000
0.866460 0.821923 0.000000
0.930291 0.820561 0.000000
0.994122 0.819199 0.000000
1.000000 0.817837 0.000000
1.000000 0.816475 0.000000
0.000000 0.000000 0.317491
0.005499 0.000000 0.312575
0.068223 0.000000 0.307658
0.130947 0.000000 0.302742
0.193671 0.000000 0.297826
0.256395 0.000000 0.292909
0.319119 0.000000 0.287993
0.381843 0.000000 0.283077
0.444567 0.000000 0.278160
0.507291 0.000000 0.273244
0.570015 0.000000 0.268327
0.632738 0.000000 0.263411
0.695462 0.000000 0.258495
0.758186 0.000000 0.253578
0.820910 0.000000 0.248662
0.883634 0.000000 0.243746
0.946358 0.000000 0.238829
0.000000 0.035097 0.300952
0.014663 0.035119 0.296036
