packages/engine/assets/luts/faded-vintage.cube
TITLE "faded-vintage"
LUT_3D_SIZE 5
DOMAIN_MIN 0 0 0
DOMAIN_MAX 1 1 1
0.116000 0.102000 0.088000
0.352000 0.102000 0.088000
0.588000 0.102000 0.088000
0.824000 0.102000 0.088000
1.000000 0.102000 0.088000
0.116000 0.331000 0.088000
0.352000 0.331000 0.088000
0.588000 0.331000 0.088000
0.824000 0.331000 0.088000
1.000000 0.331000 0.088000
0.116000 0.560000 0.088000
0.352000 0.560000 0.088000
0.588000 0.560000 0.088000
0.824000 0.560000 0.088000
1.000000 0.560000 0.088000
0.116000 0.789000 0.088000
0.352000 0.789000 0.088000
0.588000 0.789000 0.088000
0.824000 0.789000 0.088000
1.000000 0.789000 0.088000
0.116000 1.000000 0.088000
0.352000 1.000000 0.088000
0.588000 1.000000 0.088000
0.824000 1.000000 0.088000
1.000000 1.000000 0.088000
0.116000 0.102000 0.306500
0.352000 0.102000 0.306500
0.588000 0.102000 0.306500
0.824000 0.102000 0.306500
1.000000 0.102000 0.306500
0.116000 0.331000 0.306500
0.352000 0.331000 0.306500
0.588000 0.331000 0.306500
0.824000 0.331000 0.306500
1.000000 0.331000 0.306500
0.116000 0.560000 0.306500
0.352000 0.560000 0.306500
0.588000 0.560000 0.306500
0.824000 0.560000 0.306500
1.000000 0.560000 0.306500
0.116000 0.789000 0.306500
0.352000 0.789000 0.306500
0.588000 0.789000 0.306500
0.824000 0.789000 0.306500
1.000000 0.789000 0.306500
0.116000 1.000000 0.306500
0.352000 1.000000 0.306500
0.588000 1.000000 0.306500
0.824000 1.000000 0.306500
1.000000 1.000000 0.306500
0.116000 0.102000 0.525000
0.352000 0.102000 0.525000
0.588000 0.102000 0.525000
0.824000 0.102000 0.525000
1.000000 0.102000 0.525000
0.116000 0.331000 0.525000
0.352000 0.331000 0.525000
0.588000 0.331000 0.525000
0.824000 0.331000 0.525000
1.000000 0.331000 0.525000
0.116000 0.560000 0.525000
0.352000 0.560000 0.525000
0.588000 0.560000 0.525000
0.824000 0.560000 0.525000
1.000000 0.560000 0.525000
0.116000 0.789000 0.525000
0.352000 0.789000 0.525000
0.588000 0.789000 0.525000
0.824000 0.789000 0.525000
1.000000 0.789000 0.525000
0.116000 1.000000 0.525000
0.352000 1.000000 0.525000
0.588000 1.000000 0.525000
0.824000 1.000000 0.525000
1.000000 1.000000 0.525000
0.116000 0.102000 0.743500
0.352000 0.102000 0.743500
0.588000 0.102000 0.743500
0.824000 0.102000 0.743500
1.000000 0.102000 0.743500
0.116000 0.331000 0.743500
0.352000 0.331000 0.743500
0.588000 0.331000 0.743500
0.824000 0.331000 0.743500
1.000000 0.331000 0.743500
0.116000 0.560000 0.743500
0.352000 0.560000 0.743500
0.588000 0.560000 0.743500
0.824000 0.560000 0.743500
1.000000 0.560000 0.743500
0.116000 0.789000 0.743500
0.352000 0.789000 0.743500
0.588000 0.789000 0.743500
0.824000 0.789000 0.743500
1.000000 0.789000 0.743500
0.116000 1.000000 0.743500
0.352000 1.000000 0.743500
0.588000 1.000000 0.743500
0.824000 1.000000 0.743500
1.000000 1.000000 0.743500
0.116000 0.102000 0.962000
0.352000 0.102000 0.962000
0.588000 0.102000 0.962000
0.824000 0.102000 0.962000
1.000000 0.102000 0.962000
0.116000 0.331000 0.962000
0.352000 0.331000 0.962000
0.588000 0.331000 0.962000
0.824000 0.331000 0.962000
1.000000 0.331000 0.962000
0.116000 0.560000 0.962000
0.352000 0.560000 0.962000
0.588000 0.560000 0.962000
0.824000 0.560000 0.962000
1.000000 0.560000 0.962000
0.116000 0.789000 0.962000
0.352000 0.789000 0.962000
0.588000 0.789000 0.962000
0.824000 0.789000 0.962000
1.000000 0.789000 0.962000
0.116000 1.000000 0.962000
0.352000 1.000000 0.962000
0.588000 1.000000 0.962000
0.824000 1.000000 0.962000
1.000000 1.000000 0.962000
