packages/engine/assets/luts/faded-vintage.cube
TITLE "faded-vintage"
LUT_3D_SIZE 17
DOMAIN_MIN 0 0 0
DOMAIN_MAX 1 1 1
0.116000 0.102000 0.088000
0.175000 0.102000 0.088000
0.234000 0.102000 0.088000
0.293000 0.102000 0.088000
0.352000 0.102000 0.088000
0.411000 0.102000 0.088000
0.470000 0.102000 0.088000
0.529000 0.102000 0.088000
0.588000 0.102000 0.088000
0.647000 0.102000 0.088000
0.706000 0.102000 0.088000
0.765000 0.102000 0.088000
0.824000 0.102000 0.088000
0.883000 0.102000 0.088000
0.942000 0.102000 0.088000
1.000000 0.102000 0.088000
1.000000 0.102000 0.088000
0.116000 0.159250 0.088000
0.175000 0.159250 0.088000
0.234000 0.159250 0.088000
0.293000 0.159250 0.088000
0.352000 0.159250 0.088000
0.411000 0.159250 0.088000
0.470000 0.159250 0.088000
0.529000 0.159250 0.088000
0.588000 0.159250 0.088000
0.647000 0.159250 0.088000
0.706000 0.159250 0.088000
0.765000 0.159250 0.088000
0.824000 0.159250 0.088000
0.883000 0.159250 0.088000
0.942000 0.159250 0.088000
1.000000 0.159250 0.088000
1.000000 0.159250 0.088000
0.116000 0.216500 0.088000
0.175000 0.216500 0.088000
0.234000 0.216500 0.088000
0.293000 0.216500 0.088000
0.352000 0.216500 0.088000
0.411000 0.216500 0.088000
0.470000 0.216500 0.088000
0.529000 0.216500 0.088000
0.588000 0.216500 0.088000
0.647000 0.216500 0.088000
0.706000 0.216500 0.088000
0.765000 0.216500 0.088000
0.824000 0.216500 0.088000
0.883000 0.216500 0.088000
0.942000 0.216500 0.088000
1.000000 0.216500 0.088000
1.000000 0.216500 0.088000
0.116000 0.273750 0.088000
0.175000 0.273750 0.088000
0.234000 0.273750 0.088000
0.293000 0.273750 0.088000
0.352000 0.273750 0.088000
0.411000 0.273750 0.088000
0.470000 0.273750 0.088000
0.529000 0.273750 0.088000
0.588000 0.273750 0.088000
0.647000 0.273750 0.088000
0.706000 0.273750 0.088000
0.765000 0.273750 0.088000
0.824000 0.273750 0.088000
0.883000 0.273750 0.088000
0.942000 0.273750 0.088000
1.000000 0.273750 0.088000
1.000000 0.273750 0.088000
0.116000 0.331000 0.088000
0.175000 0.331000 0.088000
0.234000 0.331000 0.088000
0.293000 0.331000 0.088000
0.352000 0.331000 0.088000
0.411000 0.331000 0.088000
0.470000 0.331000 0.088000
0.529000 0.331000 0.088000
0.588000 0.331000 0.088000
0.647000 0.331000 0.088000
0.706000 0.331000 0.088000
0.765000 0.331000 0.088000
0.824000 0.331000 0.088000
0.883000 0.331000 0.088000
0.942000 0.331000 0.088000
1.000000 0.331000 0.088000
1.000000 0.331000 0.088000
0.116000 0.388250 0.088000
0.175000 0.388250 0.088000
0.234000 0.388250 0.088000
0.293000 0.388250 0.088000
0.352000 0.388250 0.088000
0.411000 0.388250 0.088000
0.470000 0.388250 0.088000
0.529000 0.388250 0.088000
0.588000 0.388250 0.088000
0.647000 0.388250 0.088000
0.706000 0.388250 0.088000
0.765000 0.388250 0.088000
0.824000 0.388250 0.088000
0.883000 0.388250 0.088000
0.942000 0.388250 0.088000
1.000000 0.388250 0.088000
1.000000 0.388250 0.088000
0.116000 0.445500 0.088000
0.175000 0.445500 0.088000
0.234000 0.445500 0.088000
0.293000 0.445500 0.088000
0.352000 0.445500 0.088000
0.411000 0.445500 0.088000
0.470000 0.445500 0.088000
0.529000 0.445500 0.088000
0.588000 0.445500 0.088000
0.647000 0.445500 0.088000
0.706000 0.445500 0.088000
0.765000 0.445500 0.088000
0.824000 0.445500 0.088000
0.883000 0.445500 0.088000
0.942000 0.445500 0.088000
1.000000 0.445500 0.088000
1.000000 0.445500 0.088000
0.116000 0.502750 0.088000
0.175000 0.502750 0.088000
0.234000 0.502750 0.088000
0.293000 0.502750 0.088000
0.352000 0.502750 0.088000
0.411000 0.502750 0.088000
0.470000 0.502750 0.088000
0.529000 0.502750 0.088000
0.588000 0.502750 0.088000
0.647000 0.502750 0.088000
0.706000 0.502750 0.088000
0.765000 0.502750 0.088000
0.824000 0.502750 0.088000
0.883000 0.502750 0.088000
0.942000 0.502750 0.088000
1.000000 0.502750 0.088000
1.000000 0.502750 0.088000
0.116000 0.560000 0.088000
0.175000 0.560000 0.088000
0.234000 0.560000 0.088000
0.293000 0.560000 0.088000
0.352000 0.560000 0.088000
0.411000 0.560000 0.088000
0.470000 0.560000 0.088000
0.529000 0.560000 0.088000
0.588000 0.560000 0.088000
0.647000 0.560000 0.088000
0.706000 0.560000 0.088000
0.765000 0.560000 0.088000
0.824000 0.560000 0.088000
0.883000 0.560000 0.088000
0.942000 0.560000 0.088000
1.000000 0.560000 0.088000
1.000000 0.560000 0.088000
0.116000 0.617250 0.088000
0.175000 0.617250 0.088000
0.234000 0.617250 0.088000
0.293000 0.617250 0.088000
0.352000 0.617250 0.088000
0.411000 0.617250 0.088000
0.470000 0.617250 0.088000
0.529000 0.617250 0.088000
0.588000 0.617250 0.088000
0.647000 0.617250 0.088000
0.706000 0.617250 0.088000
0.765000 0.617250 0.088000
0.824000 0.617250 0.088000
0.883000 0.617250 0.088000
0.942000 0.617250 0.088000
1.000000 0.617250 0.088000
1.000000 0.617250 0.088000
0.116000 0.674500 0.088000
0.175000 0.674500 0.088000
0.234000 0.674500 0.088000
0.293000 0.674500 0.088000
0.352000 0.674500 0.088000
0.411000 0.674500 0.088000
0.470000 0.674500 0.088000
0.529000 0.674500 0.088000
0.588000 0.674500 0.088000
0.647000 0.674500 0.088000
0.706000 0.674500 0.088000
0.765000 0.674500 0.088000
0.824000 0.674500 0.088000
0.883000 0.674500 0.088000
0.942000 0.674500 0.088000
1.000000 0.674500 0.088000
1.000000 0.674500 0.088000
0.116000 0.731750 0.088000
0.175000 0.731750 0.088000
0.234000 0.731750 0.088000
0.293000 0.731750 0.088000
0.352000 0.731750 0.088000
0.411000 0.731750 0.088000
0.470000 0.731750 0.088000
0.529000 0.731750 0.088000
0.588000 0.731750 0.088000
0.647000 0.731750 0.088000
0.706000 0.731750 0.088000
0.765000 0.731750 0.088000
0.824000 0.731750 0.088000
0.883000 0.731750 0.088000
0.942000 0.731750 0.088000
1.000000 0.731750 0.088000
1.000000 0.731750 0.088000
0.116000 0.789000 0.088000
0.175000 0.789000 0.088000
0.234000 0.789000 0.088000
0.293000 0.789000 0.088000
0.352000 0.789000 0.088000
0.411000 0.789000 0.088000
0.470000 0.789000 0.088000
0.529000 0.789000 0.088000
0.588000 0.789000 0.088000
0.647000 0.789000 0.088000
0.706000 0.789000 0.088000
0.765000 0.789000 0.088000
0.824000 0.789000 0.088000
0.883000 0.789000 0.088000
0.942000 0.789000 0.088000
1.000000 0.789000 0.088000
1.000000 0.789000 0.088000
0.116000 0.846250 0.088000
0.175000 0.846250 0.088000
0.234000 0.846250 0.088000
0.293000 0.846250 0.088000
0.352000 0.846250 0.088000
0.411000 0.846250 0.088000
0.470000 0.846250 0.088000
0.529000 0.846250 0.088000
0.588000 0.846250 0.088000
0.647000 0.846250 0.088000
0.706000 0.846250 0.088000
0.765000 0.846250 0.088000
0.824000 0.846250 0.088000
0.883000 0.846250 0.088000
0.942000 0.846250 0.088000
1.000000 0.846250 0.088000
1.000000 0.846250 0.088000
0.116000 0.903500 0.088000
0.175000 0.903500 0.088000
0.234000 0.903500 0.088000
0.293000 0.903500 0.088000
0.352000 0.903500 0.088000
0.411000 0.903500 0.088000
0.470000 0.903500 0.088000
0.529000 0.903500 0.088000
0.588000 0.903500 0.088000
0.647000 0.903500 0.088000
0.706000 0.903500 0.088000
0.765000 0.903500 0.088000
0.824000 0.903500 0.088000
0.883000 0.903500 0.088000
0.942000 0.903500 0.088000
1.000000 0.903500 0.088000
1.000000 0.903500 0.088000
0.116000 0.960750 0.088000
0.175000 0.960750 0.088000
0.234000 0.960750 0.088000
0.293000 0.960750 0.088000
0.352000 0.960750 0.088000
0.411000 0.960750 0.088000
0.470000 0.960750 0.088000
0.529000 0.960750 0.088000
0.588000 0.960750 0.088000
0.647000 0.960750 0.088000
0.706000 0.960750 0.088000
0.765000 0.960750 0.088000
0.824000 0.960750 0.088000
0.883000 0.960750 0.088000
0.942000 0.960750 0.088000
1.000000 0.960750 0.088000
1.000000 0.960750 0.088000
0.116000 1.000000 0.088000
0.175000 1.000000 0.088000
0.234000 1.000000 0.088000
0.293000 1.000000 0.088000
0.352000 1.000000 0.088000
0.411000 1.000000 0.088000
0.470000 1.000000 0.088000
0.529000 1.000000 0.088000
0.588000 1.000000 0.088000
0.647000 1.000000 0.088000
0.706000 1.000000 0.088000
0.765000 1.000000 0.088000
0.824000 1.000000 0.088000
0.883000 1.000000 0.088000
0.942000 1.000000 0.088000
1.000000 1.000000 0.088000
1.000000 1.000000 0.088000
0.116000 0.102000 0.142625
0.175000 0.102000 0.142625
0.234000 0.102000 0.142625
0.293000 0.102000 0.142625
0.352000 0.102000 0.142625
0.411000 0.102000 0.142625
0.470000 0.102000 0.142625
0.529000 0.102000 0.142625
0.588000 0.102000 0.142625
0.647000 0.102000 0.142625
0.706000 0.102000 0.142625
0.765000 0.102000 0.142625
0.824000 0.102000 0.142625
0.883000 0.102000 0.142625
0.942000 0.102000 0.142625
1.000000 0.102000 0.142625
1.000000 0.102000 0.142625
0.116000 0.159250 0.142625
0.175000 0.159250 0.142625
0.234000 0.159250 0.142625
0.293000 0.159250 0.142625
0.352000 0.159250 0.142625
0.411000 0.159250 0.142625
0.470000 0.159250 0.142625
0.529000 0.159250 0.142625
0.588000 0.159250 0.142625
0.647000 0.159250 0.142625
0.706000 0.159250 0.142625
0.765000 0.159250 0.142625
0.824000 0.159250 0.142625
0.883000 0.159250 0.142625
0.942000 0.159250 0.142625
1.000000 0.159250 0.142625
1.000000 0.159250 0.142625
0.116000 0.216500 0.142625
0.175000 0.216500 0.142625
0.234000 0.216500 0.142625
0.293000 0.216500 0.142625
0.352000 0.216500 0.142625
0.411000 0.216500 0.142625
0.470000 0.216500 0.142625
0.529000 0.216500 0.142625
0.588000 0.216500 0.142625
0.647000 0.216500 0.142625
0.706000 0.216500 0.142625
0.765000 0.216500 0.142625
0.824000 0.216500 0.142625
0.883000 0.216500 0.142625
0.942000 0.216500 0.142625
1.000000 0.216500 0.142625
1.000000 0.216500 0.142625
0.116000 0.273750 0.142625
0.175000 0.273750 0.142625
0.234000 0.273750 0.142625
0.293000 0.273750 0.142625
0.352000 0.273750 0.142625
0.411000 0.273750 0.142625
0.470000 0.273750 0.142625
0.529000 0.273750 0.142625
0.588000 0.273750 0.142625
0.647000 0.273750 0.142625
0.706000 0.273750 0.142625
0.765000 0.273750 0.142625
0.824000 0.273750 0.142625
0.883000 0.273750 0.142625
0.942000 0.273750 0.142625
1.000000 0.273750 0.142625
1.000000 0.273750 0.142625
0.116000 0.331000 0.142625
0.175000 0.331000 0.142625
0.234000 0.331000 0.142625
0.293000 0.331000 0.142625
0.352000 0.331000 0.142625
0.411000 0.331000 0.142625
0.470000 0.331000 0.142625
0.529000 0.331000 0.142625
0.588000 0.331000 0.142625
0.647000 0.331000 0.142625
0.706000 0.331000 0.142625
0.765000 0.331000 0.142625
0.824000 0.331000 0.142625
0.883000 0.331000 0.142625
0.942000 0.331000 0.142625
1.000000 0.331000 0.142625
1.000000 0.331000 0.142625
0.116000 0.388250 0.142625
0.175000 0.388250 0.142625
0.234000 0.388250 0.142625
0.293000 0.388250 0.142625
0.352000 0.388250 0.142625
0.411000 0.388250 0.142625
0.470000 0.388250 0.142625
0.529000 0.388250 0.142625
0.588000 0.388250 0.142625
0.647000 0.388250 0.142625
0.706000 0.388250 0.142625
0.765000 0.388250 0.142625
0.824000 0.388250 0.142625
0.883000 0.388250 0.142625
0.942000 0.388250 0.142625
1.000000 0.388250 0.142625
1.000000 0.388250 0.142625
0.116000 0.445500 0.142625
0.175000 0.445500 0.142625
0.234000 0.445500 0.142625
0.293000 0.445500 0.142625
0.352000 0.445500 0.142625
0.411000 0.445500 0.142625
0.470000 0.445500 0.142625
0.529000 0.445500 0.142625
0.588000 0.445500 0.142625
0.647000 0.445500 0.142625
0.706000 0.445500 0.142625
0.765000 0.445500 0.142625
0.824000 0.445500 0.142625
0.883000 0.445500 0.142625
0.942000 0.445500 0.142625
1.000000 0.445500 0.142625
1.000000 0.445500 0.142625
0.116000 0.502750 0.142625
0.175000 0.502750 0.142625
0.234000 0.502750 0.142625
0.293000 0.502750 0.142625
0.352000 0.502750 0.142625
0.411000 0.502750 0.142625
0.470000 0.502750 0.142625
0.529000 0.502750 0.142625
0.588000 0.502750 0.142625
0.647000 0.502750 0.142625
0.706000 0.502750 0.142625
0.765000 0.502750 0.142625
0.824000 0.502750 0.142625
0.883000 0.502750 0.142625
0.942000 0.502750 0.142625
1.000000 0.502750 0.142625
1.000000 0.502750 0.142625
0.116000 0.560000 0.142625
0.175000 0.560000 0.142625
0.234000 0.560000 0.142625
0.293000 0.560000 0.142625
0.352000 0.560000 0.142625
0.411000 0.560000 0.142625
0.470000 0.560000 0.142625
0.529000 0.560000 0.142625
0.588000 0.560000 0.142625
0.647000 0.560000 0.142625
0.706000 0.560000 0.142625
0.765000 0.560000 0.142625
0.824000 0.560000 0.142625
0.883000 0.560000 0.142625
0.942000 0.560000 0.142625
1.000000 0.560000 0.142625
1.000000 0.560000 0.142625
0.116000 0.617250 0.142625
0.175000 0.617250 0.142625
0.234000 0.617250 0.142625
0.293000 0.617250 0.142625
0.352000 0.617250 0.142625
0.411000 0.617250 0.142625
0.470000 0.617250 0.142625
0.529000 0.617250 0.142625
0.588000 0.617250 0.142625
0.647000 0.617250 0.142625
0.706000 0.617250 0.142625
0.765000 0.617250 0.142625
0.824000 0.617250 0.142625
0.883000 0.617250 0.142625
0.942000 0.617250 0.142625
1.000000 0.617250 0.142625
1.000000 0.617250 0.142625
0.116000 0.674500 0.142625
0.175000 0.674500 0.142625
0.234000 0.674500 0.142625
0.293000 0.674500 0.142625
0.352000 0.674500 0.142625
0.411000 0.674500 0.142625
0.470000 0.674500 0.142625
0.529000 0.674500 0.142625
0.588000 0.674500 0.142625
0.647000 0.674500 0.142625
0.706000 0.674500 0.142625
0.765000 0.674500 0.142625
0.824000 0.674500 0.142625
0.883000 0.674500 0.142625
0.942000 0.674500 0.142625
1.000000 0.674500 0.142625
1.000000 0.674500 0.142625
0.116000 0.731750 0.142625
0.175000 0.731750 0.142625
0.234000 0.731750 0.142625
0.293000 0.731750 0.142625
0.352000 0.731750 0.142625
0.411000 0.731750 0.142625
0.470000 0.731750 0.142625
0.529000 0.731750 0.142625
0.588000 0.731750 0.142625
0.647000 0.731750 0.142625
0.706000 0.731750 0.142625
0.765000 0.731750 0.142625
0.824000 0.731750 0.142625
0.883000 0.731750 0.142625
0.942000 0.731750 0.142625
1.000000 0.731750 0.142625
1.000000 0.731750 0.142625
0.116000 0.789000 0.142625
0.175000 0.789000 0.142625
0.234000 0.789000 0.142625
0.293000 0.789000 0.142625
0.352000 0.789000 0.142625
0.411000 0.789000 0.142625
0.470000 0.789000 0.142625
0.529000 0.789000 0.142625
0.588000 0.789000 0.142625
0.647000 0.789000 0.142625
0.706000 0.789000 0.142625
0.765000 0.789000 0.142625
0.824000 0.789000 0.142625
0.883000 0.789000 0.142625
0.942000 0.789000 0.142625
1.000000 0.789000 0.142625
1.000000 0.789000 0.142625
0.116000 0.846250 0.142625
0.175000 0.846250 0.142625
0.234000 0.846250 0.142625
0.293000 0.846250 0.142625
0.352000 0.846250 0.142625
0.411000 0.846250 0.142625
0.470000 0.846250 0.142625
0.529000 0.846250 0.142625
0.588000 0.846250 0.142625
0.647000 0.846250 0.142625
0.706000 0.846250 0.142625
0.765000 0.846250 0.142625
0.824000 0.846250 0.142625
0.883000 0.846250 0.142625
0.942000 0.846250 0.142625
1.000000 0.846250 0.142625
1.000000 0.846250 0.142625
0.116000 0.903500 0.142625
0.175000 0.903500 0.142625
0.234000 0.903500 0.142625
0.293000 0.903500 0.142625
0.352000 0.903500 0.142625
0.411000 0.903500 0.142625
0.470000 0.903500 0.142625
0.529000 0.903500 0.142625
0.588000 0.903500 0.142625
0.647000 0.903500 0.142625
0.706000 0.903500 0.142625
0.765000 0.903500 0.142625
0.824000 0.903500 0.142625
0.883000 0.903500 0.142625
0.942000 0.903500 0.142625
1.000000 0.903500 0.142625
1.000000 0.903500 0.142625
0.116000 0.960750 0.142625
0.175000 0.960750 0.142625
0.234000 0.960750 0.142625
0.293000 0.960750 0.142625
0.352000 0.960750 0.142625
0.411000 0.960750 0.142625
0.470000 0.960750 0.142625
0.529000 0.960750 0.142625
0.588000 0.960750 0.142625
0.647000 0.960750 0.142625
0.706000 0.960750 0.142625
0.765000 0.960750 0.142625
0.824000 0.960750 0.142625
0.883000 0.960750 0.142625
0.942000 0.960750 0.142625
1.000000 0.960750 0.142625
1.000000 0.960750 0.142625
0.116000 1.000000 0.142625
0.175000 1.000000 0.142625
0.234000 1.000000 0.142625
0.293000 1.000000 0.142625
0.352000 1.000000 0.142625
0.411000 1.000000 0.142625
0.470000 1.000000 0.142625
0.529000 1.000000 0.142625
0.588000 1.000000 0.142625
0.647000 1.000000 0.142625
0.706000 1.000000 0.142625
0.765000 1.000000 0.142625
0.824000 1.000000 0.142625
0.883000 1.000000 0.142625
0.942000 1.000000 0.142625
1.000000 1.000000 0.142625
1.000000 1.000000 0.142625
0.116000 0.102000 0.197250
0.175000 0.102000 0.197250
0.234000 0.102000 0.197250
0.293000 0.102000 0.197250
0.352000 0.102000 0.197250
0.411000 0.102000 0.197250
0.470000 0.102000 0.197250
0.529000 0.102000 0.197250
0.588000 0.102000 0.197250
0.647000 0.102000 0.197250
0.706000 0.102000 0.197250
0.765000 0.102000 0.197250
0.824000 0.102000 0.197250
0.883000 0.102000 0.197250
0.942000 0.102000 0.197250
1.000000 0.102000 0.197250
1.000000 0.102000 0.197250
0.116000 0.159250 0.197250
0.175000 0.159250 0.197250
0.234000 0.159250 0.197250
0.293000 0.159250 0.197250
0.352000 0.159250 0.197250
0.411000 0.159250 0.197250
0.470000 0.159250 0.197250
0.529000 0.159250 0.197250
0.588000 0.159250 0.197250
0.647000 0.159250 0.197250
0.706000 0.159250 0.197250
0.765000 0.159250 0.197250
0.824000 0.159250 0.197250
0.883000 0.159250 0.197250
0.942000 0.159250 0.197250
1.000000 0.159250 0.197250
1.000000 0.159250 0.197250
0.116000 0.216500 0.197250
0.175000 0.216500 0.197250
0.234000 0.216500 0.197250
0.293000 0.216500 0.197250
0.352000 0.216500 0.197250
0.411000 0.216500 0.197250
0.470000 0.216500 0.197250
0.529000 0.216500 0.197250
0.588000 0.216500 0.197250
0.647000 0.216500 0.197250
0.706000 0.216500 0.197250
0.765000 0.216500 0.197250
0.824000 0.216500 0.197250
0.883000 0.216500 0.197250
0.942000 0.216500 0.197250
1.000000 0.216500 0.197250
1.000000 0.216500 0.197250
0.116000 0.273750 0.197250
0.175000 0.273750 0.197250
0.234000 0.273750 0.197250
0.293000 0.273750 0.197250
0.352000 0.273750 0.197250
0.411000 0.273750 0.197250
0.470000 0.273750 0.197250
0.529000 0.273750 0.197250
0.588000 0.273750 0.197250
0.647000 0.273750 0.197250
0.706000 0.273750 0.197250
0.765000 0.273750 0.197250
0.824000 0.273750 0.197250
0.883000 0.273750 0.197250
0.942000 0.273750 0.197250
1.000000 0.273750 0.197250
1.000000 0.273750 0.197250
0.116000 0.331000 0.197250
0.175000 0.331000 0.197250
0.234000 0.331000 0.197250
0.293000 0.331000 0.197250
0.352000 0.331000 0.197250
0.411000 0.331000 0.197250
0.470000 0.331000 0.197250
0.529000 0.331000 0.197250
0.588000 0.331000 0.197250
0.647000 0.331000 0.197250
0.706000 0.331000 0.197250
0.765000 0.331000 0.197250
0.824000 0.331000 0.197250
0.883000 0.331000 0.197250
0.942000 0.331000 0.197250
1.000000 0.331000 0.197250
1.000000 0.331000 0.197250
0.116000 0.388250 0.197250
0.175000 0.388250 0.197250
0.234000 0.388250 0.197250
0.293000 0.388250 0.197250
0.352000 0.388250 0.197250
0.411000 0.388250 0.197250
0.470000 0.388250 0.197250
0.529000 0.388250 0.197250
0.588000 0.388250 0.197250
0.647000 0.388250 0.197250
0.706000 0.388250 0.197250
0.765000 0.388250 0.197250
0.824000 0.388250 0.197250
0.883000 0.388250 0.197250
0.942000 0.388250 0.197250
1.000000 0.388250 0.197250
1.000000 0.388250 0.197250
0.116000 0.445500 0.197250
0.175000 0.445500 0.197250
0.234000 0.445500 0.197250
0.293000 0.445500 0.197250
0.352000 0.445500 0.197250
0.411000 0.445500 0.197250
0.470000 0.445500 0.197250
0.529000 0.445500 0.197250
0.588000 0.445500 0.197250
0.647000 0.445500 0.197250
0.706000 0.445500 0.197250
0.765000 0.445500 0.197250
0.824000 0.445500 0.197250
0.883000 0.445500 0.197250
0.942000 0.445500 0.197250
1.000000 0.445500 0.197250
1.000000 0.445500 0.197250
0.116000 0.502750 0.197250
0.175000 0.502750 0.197250
0.234000 0.502750 0.197250
0.293000 0.502750 0.197250
0.352000 0.502750 0.197250
0.411000 0.502750 0.197250
0.470000 0.502750 0.197250
0.529000 0.502750 0.197250
0.588000 0.502750 0.197250
0.647000 0.502750 0.197250
0.706000 0.502750 0.197250
0.765000 0.502750 0.197250
0.824000 0.502750 0.197250
0.883000 0.502750 0.197250
0.942000 0.502750 0.197250
1.000000 0.502750 0.197250
1.000000 0.502750 0.197250
0.116000 0.560000 0.197250
0.175000 0.560000 0.197250
0.234000 0.560000 0.197250
0.293000 0.560000 0.197250
0.352000 0.560000 0.197250
0.411000 0.560000 0.197250
0.470000 0.560000 0.197250
0.529000 0.560000 0.197250
0.588000 0.560000 0.197250
0.647000 0.560000 0.197250
0.706000 0.560000 0.197250
0.765000 0.560000 0.197250
0.824000 0.560000 0.197250
0.883000 0.560000 0.197250
0.942000 0.560000 0.197250
1.000000 0.560000 0.197250
1.000000 0.560000 0.197250
0.116000 0.617250 0.197250
0.175000 0.617250 0.197250
0.234000 0.617250 0.197250
0.293000 0.617250 0.197250
0.352000 0.617250 0.197250
0.411000 0.617250 0.197250
0.470000 0.617250 0.197250
0.529000 0.617250 0.197250
0.588000 0.617250 0.197250
0.647000 0.617250 0.197250
0.706000 0.617250 0.197250
0.765000 0.617250 0.197250
0.824000 0.617250 0.197250
0.883000 0.617250 0.197250
0.942000 0.617250 0.197250
1.000000 0.617250 0.197250
1.000000 0.617250 0.197250
0.116000 0.674500 0.197250
0.175000 0.674500 0.197250
0.234000 0.674500 0.197250
0.293000 0.674500 0.197250
0.352000 0.674500 0.197250
0.411000 0.674500 0.197250
0.470000 0.674500 0.197250
0.529000 0.674500 0.197250
0.588000 0.674500 0.197250
0.647000 0.674500 0.197250
0.706000 0.674500 0.197250
0.765000 0.674500 0.197250
0.824000 0.674500 0.197250
0.883000 0.674500 0.197250
0.942000 0.674500 0.197250
1.000000 0.674500 0.197250
1.000000 0.674500 0.197250
0.116000 0.731750 0.197250
0.175000 0.731750 0.197250
0.234000 0.731750 0.197250
0.293000 0.731750 0.197250
0.352000 0.731750 0.197250
0.411000 0.731750 0.197250
0.470000 0.731750 0.197250
0.529000 0.731750 0.197250
0.588000 0.731750 0.197250
0.647000 0.731750 0.197250
0.706000 0.731750 0.197250
0.765000 0.731750 0.197250
0.824000 0.731750 0.197250
0.883000 0.731750 0.197250
0.942000 0.731750 0.197250
1.000000 0.731750 0.197250
1.000000 0.731750 0.197250
0.116000 0.789000 0.197250
0.175000 0.789000 0.197250
0.234000 0.789000 0.197250
0.293000 0.789000 0.197250
0.352000 0.789000 0.197250
0.411000 0.789000 0.197250
0.470000 0.789000 0.197250
0.529000 0.789000 0.197250
0.588000 0.789000 0.197250
0.647000 0.789000 0.197250
0.706000 0.789000 0.197250
0.765000 0.789000 0.197250
0.824000 0.789000 0.197250
0.883000 0.789000 0.197250
0.942000 0.789000 0.197250
1.000000 0.789000 0.197250
1.000000 0.789000 0.197250
0.116000 0.846250 0.197250
0.175000 0.846250 0.197250
0.234000 0.846250 0.197250
0.293000 0.846250 0.197250
0.352000 0.846250 0.197250
0.411000 0.846250 0.197250
0.470000 0.846250 0.197250
0.529000 0.846250 0.197250
0.588000 0.846250 0.197250
0.647000 0.846250 0.197250
0.706000 0.846250 0.197250
0.765000 0.846250 0.197250
0.824000 0.846250 0.197250
0.883000 0.846250 0.197250
0.942000 0.846250 0.197250
1.000000 0.846250 0.197250
1.000000 0.846250 0.197250
0.116000 0.903500 0.197250
0.175000 0.903500 0.197250
0.234000 0.903500 0.197250
0.293000 0.903500 0.197250
0.352000 0.903500 0.197250
0.411000 0.903500 0.197250
0.470000 0.903500 0.197250
0.529000 0.903500 0.197250
0.588000 0.903500 0.197250
0.647000 0.903500 0.197250
0.706000 0.903500 0.197250
0.765000 0.903500 0.197250
0.824000 0.903500 0.197250
0.883000 0.903500 0.197250
0.942000 0.903500 0.197250
1.000000 0.903500 0.197250
1.000000 0.903500 0.197250
0.116000 0.960750 0.197250
0.175000 0.960750 0.197250
0.234000 0.960750 0.197250
0.293000 0.960750 0.197250
0.352000 0.960750 0.197250
0.411000 0.960750 0.197250
0.470000 0.960750 0.197250
0.529000 0.960750 0.197250
0.588000 0.960750 0.197250
0.647000 0.960750 0.197250
0.706000 0.960750 0.197250
0.765000 0.960750 0.197250
0.824000 0.960750 0.197250
0.883000 0.960750 0.197250
0.942000 0.960750 0.197250
1.000000 0.960750 0.197250
1.000000 0.960750 0.197250
0.116000 1.000000 0.197250
0.175000 1.000000 0.197250
0.234000 1.000000 0.197250
0.293000 1.000000 0.197250
0.352000 1.000000 0.197250
0.411000 1.000000 0.197250
0.470000 1.000000 0.197250
0.529000 1.000000 0.197250
0.588000 1.000000 0.197250
0.647000 1.000000 0.197250
0.706000 1.000000 0.197250
0.765000 1.000000 0.197250
0.824000 1.000000 0.197250
0.883000 1.000000 0.197250
0.942000 1.000000 0.197250
1.000000 1.000000 0.197250
1.000000 1.000000 0.197250
0.116000 0.102000 0.251875
0.175000 0.102000 0.251875
0.234000 0.102000 0.251875
0.293000 0.102000 0.251875
0.352000 0.102000 0.251875
0.411000 0.102000 0.251875
0.470000 0.102000 0.251875
0.529000 0.102000 0.251875
0.588000 0.102000 0.251875
0.647000 0.102000 0.251875
0.706000 0.102000 0.251875
0.765000 0.102000 0.251875
0.824000 0.102000 0.251875
0.883000 0.102000 0.251875
0.942000 0.102000 0.251875
1.000000 0.102000 0.251875
1.000000 0.102000 0.251875
0.116000 0.159250 0.251875
0.175000 0.159250 0.251875
