packages/engine/assets/luts/noir-film.cube
TITLE "noir-film"
LUT_3D_SIZE 9
DOMAIN_MIN 0 0 0
DOMAIN_MAX 1 1 1
0.020000 0.020000 0.020000
0.020000 0.020000 0.020000
0.020000 0.020000 0.020000
0.026974 0.026974 0.026974
0.058099 0.058099 0.058099
0.089223 0.089223 0.089223
0.120348 0.120348 0.120348
0.151472 0.151472 0.151472
0.182597 0.182597 0.182597
0.038305 0.038305 0.038305
0.069430 0.069430 0.069430
0.100555 0.100555 0.100555
0.131679 0.131679 0.131679
0.162804 0.162804 0.162804
0.193928 0.193928 0.193928
0.225053 0.225053 0.225053
0.256178 0.256178 0.256178
0.287302 0.287302 0.287302
0.143011 0.143011 0.143011
0.174135 0.174135 0.174135
0.205260 0.205260 0.205260
0.236384 0.236384 0.236384
0.267509 0.267509 0.267509
0.298634 0.298634 0.298634
0.329758 0.329758 0.329758
0.360883 0.360883 0.360883
0.392008 0.392008 0.392008
0.247716 0.247716 0.247716
0.278840 0.278840 0.278840
0.309965 0.309965 0.309965
0.341090 0.341090 0.341090
0.372214 0.372214 0.372214
0.403339 0.403339 0.403339
0.434464 0.434464 0.434464
0.465588 0.465588 0.465588
0.496713 0.496713 0.496713
0.352421 0.352421 0.352421
0.383546 0.383546 0.383546
0.414670 0.414670 0.414670
0.445795 0.445795 0.445795
0.476920 0.476920 0.476920
0.508044 0.508044 0.508044
0.539169 0.539169 0.539169
0.570294 0.570294 0.570294
0.601418 0.601418 0.601418
0.457126 0.457126 0.457126
0.488251 0.488251 0.488251
0.519376 0.519376 0.519376
0.550500 0.550500 0.550500
0.581625 0.581625 0.581625
0.612750 0.612750 0.612750
0.643874 0.643874 0.643874
0.674999 0.674999 0.674999
0.706124 0.706124 0.706124
0.561832 0.561832 0.561832
0.592956 0.592956 0.592956
0.624081 0.624081 0.624081
0.655206 0.655206 0.655206
0.686330 0.686330 0.686330
0.717455 0.717455 0.717455
0.748580 0.748580 0.748580
0.779704 0.779704 0.779704
0.810829 0.810829 0.810829
0.666537 0.666537 0.666537
0.697662 0.697662 0.697662
0.728786 0.728786 0.728786
0.759911 0.759911 0.759911
0.791036 0.791036 0.791036
0.822160 0.822160 0.822160
0.853285 0.853285 0.853285
0.884409 0.884409 0.884409
0.915534 0.915534 0.915534
0.771242 0.771242 0.771242
0.802367 0.802367 0.802367
0.833492 0.833492 0.833492
0.864616 0.864616 0.864616
0.895741 0.895741 0.895741
0.926865 0.926865 0.926865
0.957990 0.957990 0.957990
0.980000 0.980000 0.980000
0.980000 0.980000 0.980000
0.020000 0.020000 0.020000
0.020000 0.020000 0.020000
0.020000 0.020000 0.020000
0.037544 0.037544 0.037544
0.068669 0.068669 0.068669
0.099793 0.099793 0.099793
0.130918 0.130918 0.130918
0.162043 0.162043 0.162043
0.193167 0.193167 0.193167
0.048875 0.048875 0.048875
0.080000 0.080000 0.080000
0.111125 0.111125 0.111125
0.142249 0.142249 0.142249
0.173374 0.173374 0.173374
0.204499 0.204499 0.204499
0.235623 0.235623 0.235623
0.266748 0.266748 0.266748
0.297872 0.297872 0.297872
0.153581 0.153581 0.153581
0.184705 0.184705 0.184705
0.215830 0.215830 0.215830
0.246955 0.246955 0.246955
0.278079 0.278079 0.278079
0.309204 0.309204 0.309204
0.340328 0.340328 0.340328
0.371453 0.371453 0.371453
0.402578 0.402578 0.402578
0.258286 0.258286 0.258286
0.289411 0.289411 0.289411
0.320535 0.320535 0.320535
0.351660 0.351660 0.351660
0.382784 0.382784 0.382784
0.413909 0.413909 0.413909
0.445034 0.445034 0.445034
0.476158 0.476158 0.476158
0.507283 0.507283 0.507283
0.362991 0.362991 0.362991
0.394116 0.394116 0.394116
0.425240 0.425240 0.425240
0.456365 0.456365 0.456365
0.487490 0.487490 0.487490
0.518614 0.518614 0.518614
0.549739 0.549739 0.549739
0.580864 0.580864 0.580864
0.611988 0.611988 0.611988
0.467696 0.467696 0.467696
0.498821 0.498821 0.498821
0.529946 0.529946 0.529946
0.561070 0.561070 0.561070
0.592195 0.592195 0.592195
0.623320 0.623320 0.623320
0.654444 0.654444 0.654444
0.685569 0.685569 0.685569
0.716694 0.716694 0.716694
0.572402 0.572402 0.572402
0.603526 0.603526 0.603526
0.634651 0.634651 0.634651
0.665776 0.665776 0.665776
0.696900 0.696900 0.696900
0.728025 0.728025 0.728025
0.759150 0.759150 0.759150
0.790274 0.790274 0.790274
0.821399 0.821399 0.821399
0.677107 0.677107 0.677107
0.708232 0.708232 0.708232
0.739356 0.739356 0.739356
0.770481 0.770481 0.770481
0.801606 0.801606 0.801606
0.832730 0.832730 0.832730
0.863855 0.863855 0.863855
0.894980 0.894980 0.894980
0.926104 0.926104 0.926104
0.781812 0.781812 0.781812
0.812937 0.812937 0.812937
0.844062 0.844062 0.844062
0.875186 0.875186 0.875186
0.906311 0.906311 0.906311
0.937436 0.937436 0.937436
0.968560 0.968560 0.968560
0.980000 0.980000 0.980000
0.980000 0.980000 0.980000
0.020000 0.020000 0.020000
0.020000 0.020000 0.020000
0.020000 0.020000 0.020000
0.048114 0.048114 0.048114
0.079239 0.079239 0.079239
0.110363 0.110363 0.110363
0.141488 0.141488 0.141488
0.172613 0.172613 0.172613
0.203737 0.203737 0.203737
0.059445 0.059445 0.059445
0.090570 0.090570 0.090570
0.121695 0.121695 0.121695
0.152819 0.152819 0.152819
0.183944 0.183944 0.183944
0.215069 0.215069 0.215069
0.246193 0.246193 0.246193
0.277318 0.277318 0.277318
0.308443 0.308443 0.308443
0.164151 0.164151 0.164151
0.195275 0.195275 0.195275
0.226400 0.226400 0.226400
0.257525 0.257525 0.257525
0.288649 0.288649 0.288649
0.319774 0.319774 0.319774
0.350899 0.350899 0.350899
0.382023 0.382023 0.382023
0.413148 0.413148 0.413148
0.268856 0.268856 0.268856
0.299981 0.299981 0.299981
0.331105 0.331105 0.331105
0.362230 0.362230 0.362230
0.393355 0.393355 0.393355
0.424479 0.424479 0.424479
0.455604 0.455604 0.455604
0.486728 0.486728 0.486728
0.517853 0.517853 0.517853
0.373561 0.373561 0.373561
0.404686 0.404686 0.404686
0.435811 0.435811 0.435811
0.466935 0.466935 0.466935
0.498060 0.498060 0.498060
0.529184 0.529184 0.529184
0.560309 0.560309 0.560309
0.591434 0.591434 0.591434
0.622558 0.622558 0.622558
0.478267 0.478267 0.478267
0.509391 0.509391 0.509391
0.540516 0.540516 0.540516
0.571640 0.571640 0.571640
0.602765 0.602765 0.602765
0.633890 0.633890 0.633890
0.665014 0.665014 0.665014
0.696139 0.696139 0.696139
0.727264 0.727264 0.727264
0.582972 0.582972 0.582972
0.614096 0.614096 0.614096
0.645221 0.645221 0.645221
0.676346 0.676346 0.676346
0.707470 0.707470 0.707470
0.738595 0.738595 0.738595
0.769720 0.769720 0.769720
0.800844 0.800844 0.800844
0.831969 0.831969 0.831969
0.687677 0.687677 0.687677
0.718802 0.718802 0.718802
0.749926 0.749926 0.749926
0.781051 0.781051 0.781051
0.812176 0.812176 0.812176
0.843300 0.843300 0.843300
0.874425 0.874425 0.874425
0.905550 0.905550 0.905550
0.936674 0.936674 0.936674
0.792382 0.792382 0.792382
0.823507 0.823507 0.823507
0.854632 0.854632 0.854632
0.885756 0.885756 0.885756
0.916881 0.916881 0.916881
0.948006 0.948006 0.948006
0.979130 0.979130 0.979130
0.980000 0.980000 0.980000
0.980000 0.980000 0.980000
0.020000 0.020000 0.020000
0.020000 0.020000 0.020000
0.027560 0.027560 0.027560
0.058684 0.058684 0.058684
0.089809 0.089809 0.089809
0.120933 0.120933 0.120933
0.152058 0.152058 0.152058
0.183183 0.183183 0.183183
0.214307 0.214307 0.214307
0.070016 0.070016 0.070016
0.101140 0.101140 0.101140
0.132265 0.132265 0.132265
0.163389 0.163389 0.163389
0.194514 0.194514 0.194514
0.225639 0.225639 0.225639
0.256763 0.256763 0.256763
0.287888 0.287888 0.287888
0.319013 0.319013 0.319013
0.174721 0.174721 0.174721
0.205845 0.205845 0.205845
0.236970 0.236970 0.236970
0.268095 0.268095 0.268095
0.299219 0.299219 0.299219
0.330344 0.330344 0.330344
0.361469 0.361469 0.361469
0.392593 0.392593 0.392593
0.423718 0.423718 0.423718
0.279426 0.279426 0.279426
0.310551 0.310551 0.310551
0.341675 0.341675 0.341675
0.372800 0.372800 0.372800
0.403925 0.403925 0.403925
0.435049 0.435049 0.435049
0.466174 0.466174 0.466174
0.497299 0.497299 0.497299
0.528423 0.528423 0.528423
0.384131 0.384131 0.384131
0.415256 0.415256 0.415256
0.446381 0.446381 0.446381
0.477505 0.477505 0.477505
0.508630 0.508630 0.508630
0.539755 0.539755 0.539755
0.570879 0.570879 0.570879
0.602004 0.602004 0.602004
0.633128 0.633128 0.633128
0.488837 0.488837 0.488837
0.519961 0.519961 0.519961
0.551086 0.551086 0.551086
0.582211 0.582211 0.582211
0.613335 0.613335 0.613335
0.644460 0.644460 0.644460
0.675584 0.675584 0.675584
0.706709 0.706709 0.706709
0.737834 0.737834 0.737834
0.593542 0.593542 0.593542
0.624667 0.624667 0.624667
0.655791 0.655791 0.655791
0.686916 0.686916 0.686916
0.718040 0.718040 0.718040
0.749165 0.749165 0.749165
0.780290 0.780290 0.780290
0.811414 0.811414 0.811414
0.842539 0.842539 0.842539
0.698247 0.698247 0.698247
0.729372 0.729372 0.729372
0.760496 0.760496 0.760496
0.791621 0.791621 0.791621
0.822746 0.822746 0.822746
0.853870 0.853870 0.853870
0.884995 0.884995 0.884995
0.916120 0.916120 0.916120
0.947244 0.947244 0.947244
0.802952 0.802952 0.802952
0.834077 0.834077 0.834077
0.865202 0.865202 0.865202
0.896326 0.896326 0.896326
0.927451 0.927451 0.927451
0.958576 0.958576 0.958576
0.980000 0.980000 0.980000
0.980000 0.980000 0.980000
0.980000 0.980000 0.980000
0.020000 0.020000 0.020000
0.020000 0.020000 0.020000
0.038130 0.038130 0.038130
0.069254 0.069254 0.069254
0.100379 0.100379 0.100379
0.131504 0.131504 0.131504
0.162628 0.162628 0.162628
0.193753 0.193753 0.193753
0.224877 0.224877 0.224877
0.080586 0.080586 0.080586
0.111710 0.111710 0.111710
0.142835 0.142835 0.142835
0.173960 0.173960 0.173960
0.205084 0.205084 0.205084
0.236209 0.236209 0.236209
0.267333 0.267333 0.267333
0.298458 0.298458 0.298458
0.329583 0.329583 0.329583
0.185291 0.185291 0.185291
0.216416 0.216416 0.216416
0.247540 0.247540 0.247540
0.278665 0.278665 0.278665
0.309789 0.309789 0.309789
0.340914 0.340914 0.340914
0.372039 0.372039 0.372039
0.403163 0.403163 0.403163
0.434288 0.434288 0.434288
0.289996 0.289996 0.289996
0.321121 0.321121 0.321121
0.352245 0.352245 0.352245
0.383370 0.383370 0.383370
0.414495 0.414495 0.414495
0.445619 0.445619 0.445619
0.476744 0.476744 0.476744
0.507869 0.507869 0.507869
0.538993 0.538993 0.538993
0.394701 0.394701 0.394701
0.425826 0.425826 0.425826
0.456951 0.456951 0.456951
0.488075 0.488075 0.488075
0.519200 0.519200 0.519200
0.550325 0.550325 0.550325
0.581449 0.581449 0.581449
0.612574 0.612574 0.612574
0.643699 0.643699 0.643699
0.499407 0.499407 0.499407
0.530531 0.530531 0.530531
0.561656 0.561656 0.561656
0.592781 0.592781 0.592781
0.623905 0.623905 0.623905
0.655030 0.655030 0.655030
0.686155 0.686155 0.686155
0.717279 0.717279 0.717279
0.748404 0.748404 0.748404
0.604112 0.604112 0.604112
0.635237 0.635237 0.635237
0.666361 0.666361 0.666361
0.697486 0.697486 0.697486
0.728611 0.728611 0.728611
0.759735 0.759735 0.759735
0.790860 0.790860 0.790860
0.821984 0.821984 0.821984
0.853109 0.853109 0.853109
0.708817 0.708817 0.708817
0.739942 0.739942 0.739942
0.771067 0.771067 0.771067
0.802191 0.802191 0.802191
0.833316 0.833316 0.833316
0.864440 0.864440 0.864440
0.895565 0.895565 0.895565
0.926690 0.926690 0.926690
0.957814 0.957814 0.957814
0.813523 0.813523 0.813523
0.844647 0.844647 0.844647
0.875772 0.875772 0.875772
0.906896 0.906896 0.906896
0.938021 0.938021 0.938021
0.969146 0.969146 0.969146
0.980000 0.980000 0.980000
0.980000 0.980000 0.980000
0.980000 0.980000 0.980000
0.020000 0.020000 0.020000
0.020000 0.020000 0.020000
0.048700 0.048700 0.048700
0.079824 0.079824 0.079824
0.110949 0.110949 0.110949
0.142074 0.142074 0.142074
0.173198 0.173198 0.173198
0.204323 0.204323 0.204323
0.235448 0.235448 0.235448
0.091156 0.091156 0.091156
0.122280 0.122280 0.122280
0.153405 0.153405 0.153405
0.184530 0.184530 0.184530
0.215654 0.215654 0.215654
0.246779 0.246779 0.246779
0.277904 0.277904 0.277904
0.309028 0.309028 0.309028
0.340153 0.340153 0.340153
0.195861 0.195861 0.195861
0.226986 0.226986 0.226986
0.258110 0.258110 0.258110
0.289235 0.289235 0.289235
0.320360 0.320360 0.320360
0.351484 0.351484 0.351484
0.382609 0.382609 0.382609
0.413733 0.413733 0.413733
0.444858 0.444858 0.444858
0.300566 0.300566 0.300566
0.331691 0.331691 0.331691
0.362816 0.362816 0.362816
0.393940 0.393940 0.393940
0.425065 0.425065 0.425065
0.456189 0.456189 0.456189
0.487314 0.487314 0.487314
0.518439 0.518439 0.518439
0.549563 0.549563 0.549563
0.405272 0.405272 0.405272
0.436396 0.436396 0.436396
0.467521 0.467521 0.467521
0.498645 0.498645 0.498645
0.529770 0.529770 0.529770
0.560895 0.560895 0.560895
0.592019 0.592019 0.592019
0.623144 0.623144 0.623144
0.654269 0.654269 0.654269
0.509977 0.509977 0.509977
0.541101 0.541101 0.541101
0.572226 0.572226 0.572226
0.603351 0.603351 0.603351
0.634475 0.634475 0.634475
0.665600 0.665600 0.665600
0.696725 0.696725 0.696725
0.727849 0.727849 0.727849
0.758974 0.758974 0.758974
0.614682 0.614682 0.614682
0.645807 0.645807 0.645807
0.676931 0.676931 0.676931
0.708056 0.708056 0.708056
0.739181 0.739181 0.739181
0.770305 0.770305 0.770305
0.801430 0.801430 0.801430
0.832555 0.832555 0.832555
0.863679 0.863679 0.863679
0.719387 0.719387 0.719387
0.750512 0.750512 0.750512
0.781637 0.781637 0.781637
0.812761 0.812761 0.812761
0.843886 0.843886 0.843886
0.875011 0.875011 0.875011
0.906135 0.906135 0.906135
0.937260 0.937260 0.937260
0.968384 0.968384 0.968384
0.824093 0.824093 0.824093
0.855217 0.855217 0.855217
0.886342 0.886342 0.886342
0.917467 0.917467 0.917467
0.948591 0.948591 0.948591
0.979716 0.979716 0.979716
0.980000 0.980000 0.980000
0.980000 0.980000 0.980000
0.980000 0.980000 0.980000
0.020000 0.020000 0.020000
0.028145 0.028145 0.028145
0.059270 0.059270 0.059270
0.090394 0.090394 0.090394
0.121519 0.121519 0.121519
0.152644 0.152644 0.152644
0.183768 0.183768 0.183768
0.214893 0.214893 0.214893
0.246018 0.246018 0.246018
0.101726 0.101726 0.101726
0.132850 0.132850 0.132850
0.163975 0.163975 0.163975
0.195100 0.195100 0.195100
0.226224 0.226224 0.226224
0.257349 0.257349 0.257349
0.288474 0.288474 0.288474
0.319598 0.319598 0.319598
0.350723 0.350723 0.350723
0.206431 0.206431 0.206431
0.237556 0.237556 0.237556
0.268680 0.268680 0.268680
0.299805 0.299805 0.299805
0.330930 0.330930 0.330930
0.362054 0.362054 0.362054
0.393179 0.393179 0.393179
0.424304 0.424304 0.424304
0.455428 0.455428 0.455428
0.311136 0.311136 0.311136
0.342261 0.342261 0.342261
0.373386 0.373386 0.373386
0.404510 0.404510 0.404510
0.435635 0.435635 0.435635
0.466760 0.466760 0.466760
0.497884 0.497884 0.497884
0.529009 0.529009 0.529009
0.560133 0.560133 0.560133
0.415842 0.415842 0.415842
0.446966 0.446966 0.446966
0.478091 0.478091 0.478091
0.509216 0.509216 0.509216
0.540340 0.540340 0.540340
0.571465 0.571465 0.571465
0.602589 0.602589 0.602589
0.633714 0.633714 0.633714
0.664839 0.664839 0.664839
0.520547 0.520547 0.520547
0.551672 0.551672 0.551672
0.582796 0.582796 0.582796
0.613921 0.613921 0.613921
0.645045 0.645045 0.645045
0.676170 0.676170 0.676170
0.707295 0.707295 0.707295
0.738419 0.738419 0.738419
0.769544 0.769544 0.769544
0.625252 0.625252 0.625252
0.656377 0.656377 0.656377
0.687501 0.687501 0.687501
0.718626 0.718626 0.718626
0.749751 0.749751 0.749751
0.780875 0.780875 0.780875
0.812000 0.812000 0.812000
0.843125 0.843125 0.843125
0.874249 0.874249 0.874249
0.729957 0.729957 0.729957
0.761082 0.761082 0.761082
0.792207 0.792207 0.792207
0.823331 0.823331 0.823331
0.854456 0.854456 0.854456
0.885581 0.885581 0.885581
0.916705 0.916705 0.916705
0.947830 0.947830 0.947830
0.978955 0.978955 0.978955
0.834663 0.834663 0.834663
0.865787 0.865787 0.865787
0.896912 0.896912 0.896912
0.928037 0.928037 0.928037
0.959161 0.959161 0.959161
0.980000 0.980000 0.980000
0.980000 0.980000 0.980000
0.980000 0.980000 0.980000
0.980000 0.980000 0.980000
0.020000 0.020000 0.020000
0.038715 0.038715 0.038715
0.069840 0.069840 0.069840
0.100964 0.100964 0.100964
0.132089 0.132089 0.132089
0.163214 0.163214 0.163214
0.194338 0.194338 0.194338
0.225463 0.225463 0.225463
0.256588 0.256588 0.256588
0.112296 0.112296 0.112296
0.143420 0.143420 0.143420
0.174545 0.174545 0.174545
0.205670 0.205670 0.205670
0.236794 0.236794 0.236794
0.267919 0.267919 0.267919
0.299044 0.299044 0.299044
0.330168 0.330168 0.330168
0.361293 0.361293 0.361293
0.217001 0.217001 0.217001
0.248126 0.248126 0.248126
0.279250 0.279250 0.279250
0.310375 0.310375 0.310375
0.341500 0.341500 0.341500
0.372624 0.372624 0.372624
0.403749 0.403749 0.403749
0.434874 0.434874 0.434874
0.465998 0.465998 0.465998
0.321706 0.321706 0.321706
0.352831 0.352831 0.352831
0.383956 0.383956 0.383956
0.415080 0.415080 0.415080
0.446205 0.446205 0.446205
0.477330 0.477330 0.477330
0.508454 0.508454 0.508454
0.539579 0.539579 0.539579
0.570704 0.570704 0.570704
0.426412 0.426412 0.426412
0.457536 0.457536 0.457536
0.488661 0.488661 0.488661
0.519786 0.519786 0.519786
0.550910 0.550910 0.550910
0.582035 0.582035 0.582035
0.613160 0.613160 0.613160
0.644284 0.644284 0.644284
0.675409 0.675409 0.675409
0.531117 0.531117 0.531117
0.562242 0.562242 0.562242
0.593366 0.593366 0.593366
0.624491 0.624491 0.624491
0.655616 0.655616 0.655616
0.686740 0.686740 0.686740
0.717865 0.717865 0.717865
0.748989 0.748989 0.748989
0.780114 0.780114 0.780114
0.635822 0.635822 0.635822
0.666947 0.666947 0.666947
0.698072 0.698072 0.698072
0.729196 0.729196 0.729196
0.760321 0.760321 0.760321
0.791445 0.791445 0.791445
0.822570 0.822570 0.822570
0.853695 0.853695 0.853695
0.884819 0.884819 0.884819
0.740528 0.740528 0.740528
0.771652 0.771652 0.771652
0.802777 0.802777 0.802777
0.833901 0.833901 0.833901
0.865026 0.865026 0.865026
0.896151 0.896151 0.896151
0.927275 0.927275 0.927275
0.958400 0.958400 0.958400
0.980000 0.980000 0.980000
0.845233 0.845233 0.845233
0.876357 0.876357 0.876357
0.907482 0.907482 0.907482
0.938607 0.938607 0.938607
0.969731 0.969731 0.969731
0.980000 0.980000 0.980000
0.980000 0.980000 0.980000
0.980000 0.980000 0.980000
0.980000 0.980000 0.980000
0.020000 0.020000 0.020000
0.049285 0.049285 0.049285
0.080410 0.080410 0.080410
0.111535 0.111535 0.111535
0.142659 0.142659 0.142659
0.173784 0.173784 0.173784
0.204908 0.204908 0.204908
0.236033 0.236033 0.236033
0.267158 0.267158 0.267158
0.122866 0.122866 0.122866
0.153991 0.153991 0.153991
0.185115 0.185115 0.185115
0.216240 0.216240 0.216240
0.247364 0.247364 0.247364
0.278489 0.278489 0.278489
0.309614 0.309614 0.309614
0.340738 0.340738 0.340738
0.371863 0.371863 0.371863
0.227571 0.227571 0.227571
0.258696 0.258696 0.258696
0.289820 0.289820 0.289820
0.320945 0.320945 0.320945
0.352070 0.352070 0.352070
0.383194 0.383194 0.383194
0.414319 0.414319 0.414319
0.445444 0.445444 0.445444
0.476568 0.476568 0.476568
0.332276 0.332276 0.332276
0.363401 0.363401 0.363401
0.394526 0.394526 0.394526
0.425650 0.425650 0.425650
0.456775 0.456775 0.456775
0.487900 0.487900 0.487900
0.519024 0.519024 0.519024
0.550149 0.550149 0.550149
0.581274 0.581274 0.581274
0.436982 0.436982 0.436982
0.468106 0.468106 0.468106
0.499231 0.499231 0.499231
0.530356 0.530356 0.530356
0.561480 0.561480 0.561480
0.592605 0.592605 0.592605
0.623730 0.623730 0.623730
0.654854 0.654854 0.654854
0.685979 0.685979 0.685979
0.541687 0.541687 0.541687
0.572812 0.572812 0.572812
0.603936 0.603936 0.603936
0.635061 0.635061 0.635061
0.666186 0.666186 0.666186
0.697310 0.697310 0.697310
0.728435 0.728435 0.728435
0.759560 0.759560 0.759560
0.790684 0.790684 0.790684
0.646392 0.646392 0.646392
0.677517 0.677517 0.677517
0.708642 0.708642 0.708642
0.739766 0.739766 0.739766
0.770891 0.770891 0.770891
0.802016 0.802016 0.802016
0.833140 0.833140 0.833140
0.864265 0.864265 0.864265
0.895389 0.895389 0.895389
0.751098 0.751098 0.751098
0.782222 0.782222 0.782222
0.813347 0.813347 0.813347
0.844472 0.844472 0.844472
0.875596 0.875596 0.875596
0.906721 0.906721 0.906721
0.937845 0.937845 0.937845
0.968970 0.968970 0.968970
0.980000 0.980000 0.980000
0.855803 0.855803 0.855803
0.886928 0.886928 0.886928
0.918052 0.918052 0.918052
0.949177 0.949177 0.949177
0.980000 0.980000 0.980000
0.980000 0.980000 0.980000
0.980000 0.980000 0.980000
0.980000 0.980000 0.980000
0.980000 0.980000 0.980000
