packages/engine/assets/luts/noir-film.cube
TITLE "noir-film"
LUT_3D_SIZE 17
DOMAIN_MIN 0 0 0
DOMAIN_MAX 1 1 1
0.020000 0.020000 0.020000
0.020000 0.020000 0.020000
0.020000 0.020000 0.020000
0.020000 0.020000 0.020000
0.020000 0.020000 0.020000
0.020000 0.020000 0.020000
0.026974 0.026974 0.026974
0.042536 0.042536 0.042536
0.058099 0.058099 0.058099
0.073661 0.073661 0.073661
0.089223 0.089223 0.089223
0.104786 0.104786 0.104786
0.120348 0.120348 0.120348
0.135910 0.135910 0.135910
0.151472 0.151472 0.151472
0.167035 0.167035 0.167035
0.182597 0.182597 0.182597
0.020000 0.020000 0.020000
0.020000 0.020000 0.020000
0.020000 0.020000 0.020000
0.032640 0.032640 0.032640
0.048202 0.048202 0.048202
0.063764 0.063764 0.063764
0.079327 0.079327 0.079327
0.094889 0.094889 0.094889
0.110451 0.110451 0.110451
0.126014 0.126014 0.126014
0.141576 0.141576 0.141576
0.157138 0.157138 0.157138
0.172700 0.172700 0.172700
0.188263 0.188263 0.188263
0.203825 0.203825 0.203825
0.219387 0.219387 0.219387
0.234950 0.234950 0.234950
0.038305 0.038305 0.038305
0.053868 0.053868 0.053868
0.069430 0.069430 0.069430
0.084992 0.084992 0.084992
0.100555 0.100555 0.100555
0.116117 0.116117 0.116117
0.131679 0.131679 0.131679
0.147242 0.147242 0.147242
0.162804 0.162804 0.162804
0.178366 0.178366 0.178366
0.193928 0.193928 0.193928
0.209491 0.209491 0.209491
0.225053 0.225053 0.225053
0.240615 0.240615 0.240615
0.256178 0.256178 0.256178
0.271740 0.271740 0.271740
0.287302 0.287302 0.287302
0.090658 0.090658 0.090658
0.106220 0.106220 0.106220
0.121783 0.121783 0.121783
0.137345 0.137345 0.137345
0.152907 0.152907 0.152907
0.168470 0.168470 0.168470
0.184032 0.184032 0.184032
0.199594 0.199594 0.199594
0.215156 0.215156 0.215156
0.230719 0.230719 0.230719
0.246281 0.246281 0.246281
0.261843 0.261843 0.261843
0.277406 0.277406 0.277406
0.292968 0.292968 0.292968
0.308530 0.308530 0.308530
0.324093 0.324093 0.324093
0.339655 0.339655 0.339655
0.143011 0.143011 0.143011
0.158573 0.158573 0.158573
0.174135 0.174135 0.174135
0.189698 0.189698 0.189698
0.205260 0.205260 0.205260
0.220822 0.220822 0.220822
0.236384 0.236384 0.236384
0.251947 0.251947 0.251947
0.267509 0.267509 0.267509
0.283071 0.283071 0.283071
0.298634 0.298634 0.298634
0.314196 0.314196 0.314196
0.329758 0.329758 0.329758
0.345321 0.345321 0.345321
0.360883 0.360883 0.360883
0.376445 0.376445 0.376445
0.392008 0.392008 0.392008
0.195363 0.195363 0.195363
0.210926 0.210926 0.210926
0.226488 0.226488 0.226488
0.242050 0.242050 0.242050
0.257612 0.257612 0.257612
0.273175 0.273175 0.273175
0.288737 0.288737 0.288737
0.304299 0.304299 0.304299
0.319862 0.319862 0.319862
0.335424 0.335424 0.335424
0.350986 0.350986 0.350986
0.366549 0.366549 0.366549
0.382111 0.382111 0.382111
0.397673 0.397673 0.397673
0.413236 0.413236 0.413236
0.428798 0.428798 0.428798
0.444360 0.444360 0.444360
0.247716 0.247716 0.247716
0.263278 0.263278 0.263278
0.278840 0.278840 0.278840
0.294403 0.294403 0.294403
0.309965 0.309965 0.309965
0.325527 0.325527 0.325527
0.341090 0.341090 0.341090
0.356652 0.356652 0.356652
0.372214 0.372214 0.372214
0.387777 0.387777 0.387777
0.403339 0.403339 0.403339
0.418901 0.418901 0.418901
0.434464 0.434464 0.434464
0.450026 0.450026 0.450026
0.465588 0.465588 0.465588
0.481151 0.481151 0.481151
0.496713 0.496713 0.496713
0.300068 0.300068 0.300068
0.315631 0.315631 0.315631
0.331193 0.331193 0.331193
0.346755 0.346755 0.346755
0.362318 0.362318 0.362318
0.377880 0.377880 0.377880
0.393442 0.393442 0.393442
0.409005 0.409005 0.409005
0.424567 0.424567 0.424567
0.440129 0.440129 0.440129
0.455692 0.455692 0.455692
0.471254 0.471254 0.471254
0.486816 0.486816 0.486816
0.502379 0.502379 0.502379
0.517941 0.517941 0.517941
0.533503 0.533503 0.533503
0.549066 0.549066 0.549066
0.352421 0.352421 0.352421
0.367983 0.367983 0.367983
0.383546 0.383546 0.383546
0.399108 0.399108 0.399108
0.414670 0.414670 0.414670
0.430233 0.430233 0.430233
0.445795 0.445795 0.445795
0.461357 0.461357 0.461357
0.476920 0.476920 0.476920
0.492482 0.492482 0.492482
0.508044 0.508044 0.508044
0.523607 0.523607 0.523607
0.539169 0.539169 0.539169
0.554731 0.554731 0.554731
0.570294 0.570294 0.570294
0.585856 0.585856 0.585856
0.601418 0.601418 0.601418
0.404774 0.404774 0.404774
0.420336 0.420336 0.420336
0.435898 0.435898 0.435898
0.451461 0.451461 0.451461
0.467023 0.467023 0.467023
0.482585 0.482585 0.482585
0.498148 0.498148 0.498148
0.513710 0.513710 0.513710
0.529272 0.529272 0.529272
0.544835 0.544835 0.544835
0.560397 0.560397 0.560397
0.575959 0.575959 0.575959
0.591522 0.591522 0.591522
0.607084 0.607084 0.607084
0.622646 0.622646 0.622646
0.638209 0.638209 0.638209
0.653771 0.653771 0.653771
0.457126 0.457126 0.457126
0.472689 0.472689 0.472689
0.488251 0.488251 0.488251
0.503813 0.503813 0.503813
0.519376 0.519376 0.519376
0.534938 0.534938 0.534938
0.550500 0.550500 0.550500
0.566063 0.566063 0.566063
0.581625 0.581625 0.581625
0.597187 0.597187 0.597187
0.612750 0.612750 0.612750
0.628312 0.628312 0.628312
0.643874 0.643874 0.643874
0.659437 0.659437 0.659437
0.674999 0.674999 0.674999
0.690561 0.690561 0.690561
0.706124 0.706124 0.706124
0.509479 0.509479 0.509479
0.525041 0.525041 0.525041
0.540604 0.540604 0.540604
0.556166 0.556166 0.556166
0.571728 0.571728 0.571728
0.587291 0.587291 0.587291
0.602853 0.602853 0.602853
0.618415 0.618415 0.618415
0.633978 0.633978 0.633978
0.649540 0.649540 0.649540
0.665102 0.665102 0.665102
0.680665 0.680665 0.680665
0.696227 0.696227 0.696227
0.711789 0.711789 0.711789
0.727352 0.727352 0.727352
0.742914 0.742914 0.742914
0.758476 0.758476 0.758476
0.561832 0.561832 0.561832
0.577394 0.577394 0.577394
0.592956 0.592956 0.592956
0.608519 0.608519 0.608519
0.624081 0.624081 0.624081
0.639643 0.639643 0.639643
0.655206 0.655206 0.655206
0.670768 0.670768 0.670768
0.686330 0.686330 0.686330
0.701893 0.701893 0.701893
0.717455 0.717455 0.717455
0.733017 0.733017 0.733017
0.748580 0.748580 0.748580
0.764142 0.764142 0.764142
0.779704 0.779704 0.779704
0.795266 0.795266 0.795266
0.810829 0.810829 0.810829
0.614184 0.614184 0.614184
0.629747 0.629747 0.629747
0.645309 0.645309 0.645309
0.660871 0.660871 0.660871
0.676434 0.676434 0.676434
0.691996 0.691996 0.691996
0.707558 0.707558 0.707558
0.723121 0.723121 0.723121
0.738683 0.738683 0.738683
0.754245 0.754245 0.754245
0.769808 0.769808 0.769808
0.785370 0.785370 0.785370
0.800932 0.800932 0.800932
0.816494 0.816494 0.816494
0.832057 0.832057 0.832057
0.847619 0.847619 0.847619
0.863181 0.863181 0.863181
0.666537 0.666537 0.666537
0.682099 0.682099 0.682099
0.697662 0.697662 0.697662
0.713224 0.713224 0.713224
0.728786 0.728786 0.728786
0.744349 0.744349 0.744349
0.759911 0.759911 0.759911
0.775473 0.775473 0.775473
0.791036 0.791036 0.791036
0.806598 0.806598 0.806598
0.822160 0.822160 0.822160
0.837722 0.837722 0.837722
0.853285 0.853285 0.853285
0.868847 0.868847 0.868847
0.884409 0.884409 0.884409
0.899972 0.899972 0.899972
0.915534 0.915534 0.915534
0.718890 0.718890 0.718890
0.734452 0.734452 0.734452
0.750014 0.750014 0.750014
0.765577 0.765577 0.765577
0.781139 0.781139 0.781139
0.796701 0.796701 0.796701
0.812264 0.812264 0.812264
0.827826 0.827826 0.827826
0.843388 0.843388 0.843388
0.858950 0.858950 0.858950
0.874513 0.874513 0.874513
0.890075 0.890075 0.890075
0.905637 0.905637 0.905637
0.921200 0.921200 0.921200
0.936762 0.936762 0.936762
0.952324 0.952324 0.952324
0.967887 0.967887 0.967887
0.771242 0.771242 0.771242
0.786805 0.786805 0.786805
0.802367 0.802367 0.802367
0.817929 0.817929 0.817929
0.833492 0.833492 0.833492
0.849054 0.849054 0.849054
0.864616 0.864616 0.864616
0.880178 0.880178 0.880178
0.895741 0.895741 0.895741
0.911303 0.911303 0.911303
0.926865 0.926865 0.926865
0.942428 0.942428 0.942428
0.957990 0.957990 0.957990
0.973552 0.973552 0.973552
0.980000 0.980000 0.980000
0.980000 0.980000 0.980000
0.980000 0.980000 0.980000
0.020000 0.020000 0.020000
0.020000 0.020000 0.020000
0.020000 0.020000 0.020000
0.020000 0.020000 0.020000
0.020000 0.020000 0.020000
0.020000 0.020000 0.020000
0.032259 0.032259 0.032259
0.047821 0.047821 0.047821
0.063384 0.063384 0.063384
0.078946 0.078946 0.078946
0.094508 0.094508 0.094508
0.110071 0.110071 0.110071
0.125633 0.125633 0.125633
0.141195 0.141195 0.141195
0.156758 0.156758 0.156758
0.172320 0.172320 0.172320
0.187882 0.187882 0.187882
0.020000 0.020000 0.020000
0.020000 0.020000 0.020000
0.022362 0.022362 0.022362
0.037925 0.037925 0.037925
0.053487 0.053487 0.053487
0.069049 0.069049 0.069049
0.084612 0.084612 0.084612
0.100174 0.100174 0.100174
0.115736 0.115736 0.115736
0.131299 0.131299 0.131299
0.146861 0.146861 0.146861
0.162423 0.162423 0.162423
0.177986 0.177986 0.177986
0.193548 0.193548 0.193548
0.209110 0.209110 0.209110
0.224672 0.224672 0.224672
0.240235 0.240235 0.240235
0.043590 0.043590 0.043590
0.059153 0.059153 0.059153
0.074715 0.074715 0.074715
0.090277 0.090277 0.090277
0.105840 0.105840 0.105840
0.121402 0.121402 0.121402
0.136964 0.136964 0.136964
0.152527 0.152527 0.152527
0.168089 0.168089 0.168089
0.183651 0.183651 0.183651
0.199214 0.199214 0.199214
0.214776 0.214776 0.214776
0.230338 0.230338 0.230338
0.245900 0.245900 0.245900
0.261463 0.261463 0.261463
0.277025 0.277025 0.277025
0.292587 0.292587 0.292587
0.095943 0.095943 0.095943
0.111505 0.111505 0.111505
0.127068 0.127068 0.127068
0.142630 0.142630 0.142630
0.158192 0.158192 0.158192
0.173755 0.173755 0.173755
0.189317 0.189317 0.189317
0.204879 0.204879 0.204879
0.220442 0.220442 0.220442
0.236004 0.236004 0.236004
0.251566 0.251566 0.251566
0.267128 0.267128 0.267128
0.282691 0.282691 0.282691
0.298253 0.298253 0.298253
0.313815 0.313815 0.313815
0.329378 0.329378 0.329378
0.344940 0.344940 0.344940
0.148296 0.148296 0.148296
0.163858 0.163858 0.163858
0.179420 0.179420 0.179420
0.194983 0.194983 0.194983
0.210545 0.210545 0.210545
0.226107 0.226107 0.226107
0.241670 0.241670 0.241670
0.257232 0.257232 0.257232
0.272794 0.272794 0.272794
0.288356 0.288356 0.288356
0.303919 0.303919 0.303919
0.319481 0.319481 0.319481
0.335043 0.335043 0.335043
0.350606 0.350606 0.350606
0.366168 0.366168 0.366168
0.381730 0.381730 0.381730
0.397293 0.397293 0.397293
0.200648 0.200648 0.200648
0.216211 0.216211 0.216211
0.231773 0.231773 0.231773
0.247335 0.247335 0.247335
0.262898 0.262898 0.262898
0.278460 0.278460 0.278460
0.294022 0.294022 0.294022
0.309584 0.309584 0.309584
0.325147 0.325147 0.325147
0.340709 0.340709 0.340709
0.356271 0.356271 0.356271
0.371834 0.371834 0.371834
0.387396 0.387396 0.387396
0.402958 0.402958 0.402958
0.418521 0.418521 0.418521
0.434083 0.434083 0.434083
0.449645 0.449645 0.449645
0.253001 0.253001 0.253001
0.268563 0.268563 0.268563
0.284126 0.284126 0.284126
0.299688 0.299688 0.299688
0.315250 0.315250 0.315250
0.330812 0.330812 0.330812
0.346375 0.346375 0.346375
0.361937 0.361937 0.361937
0.377499 0.377499 0.377499
0.393062 0.393062 0.393062
0.408624 0.408624 0.408624
0.424186 0.424186 0.424186
0.439749 0.439749 0.439749
0.455311 0.455311 0.455311
0.470873 0.470873 0.470873
0.486436 0.486436 0.486436
0.501998 0.501998 0.501998
0.305354 0.305354 0.305354
0.320916 0.320916 0.320916
0.336478 0.336478 0.336478
0.352040 0.352040 0.352040
0.367603 0.367603 0.367603
0.383165 0.383165 0.383165
0.398727 0.398727 0.398727
0.414290 0.414290 0.414290
0.429852 0.429852 0.429852
0.445414 0.445414 0.445414
0.460977 0.460977 0.460977
0.476539 0.476539 0.476539
0.492101 0.492101 0.492101
0.507664 0.507664 0.507664
0.523226 0.523226 0.523226
0.538788 0.538788 0.538788
0.554351 0.554351 0.554351
0.357706 0.357706 0.357706
0.373268 0.373268 0.373268
0.388831 0.388831 0.388831
0.404393 0.404393 0.404393
0.419955 0.419955 0.419955
0.435518 0.435518 0.435518
0.451080 0.451080 0.451080
0.466642 0.466642 0.466642
0.482205 0.482205 0.482205
0.497767 0.497767 0.497767
0.513329 0.513329 0.513329
0.528892 0.528892 0.528892
0.544454 0.544454 0.544454
0.560016 0.560016 0.560016
0.575579 0.575579 0.575579
0.591141 0.591141 0.591141
0.606703 0.606703 0.606703
0.410059 0.410059 0.410059
0.425621 0.425621 0.425621
0.441183 0.441183 0.441183
0.456746 0.456746 0.456746
0.472308 0.472308 0.472308
0.487870 0.487870 0.487870
0.503433 0.503433 0.503433
0.518995 0.518995 0.518995
0.534557 0.534557 0.534557
0.550120 0.550120 0.550120
0.565682 0.565682 0.565682
0.581244 0.581244 0.581244
0.596807 0.596807 0.596807
0.612369 0.612369 0.612369
0.627931 0.627931 0.627931
0.643494 0.643494 0.643494
0.659056 0.659056 0.659056
0.462411 0.462411 0.462411
0.477974 0.477974 0.477974
0.493536 0.493536 0.493536
0.509098 0.509098 0.509098
0.524661 0.524661 0.524661
0.540223 0.540223 0.540223
0.555785 0.555785 0.555785
0.571348 0.571348 0.571348
0.586910 0.586910 0.586910
0.602472 0.602472 0.602472
0.618035 0.618035 0.618035
0.633597 0.633597 0.633597
0.649159 0.649159 0.649159
0.664722 0.664722 0.664722
0.680284 0.680284 0.680284
0.695846 0.695846 0.695846
0.711409 0.711409 0.711409
0.514764 0.514764 0.514764
0.530326 0.530326 0.530326
0.545889 0.545889 0.545889
0.561451 0.561451 0.561451
0.577013 0.577013 0.577013
0.592576 0.592576 0.592576
0.608138 0.608138 0.608138
0.623700 0.623700 0.623700
0.639263 0.639263 0.639263
0.654825 0.654825 0.654825
0.670387 0.670387 0.670387
0.685950 0.685950 0.685950
0.701512 0.701512 0.701512
0.717074 0.717074 0.717074
0.732637 0.732637 0.732637
0.748199 0.748199 0.748199
0.763761 0.763761 0.763761
0.567117 0.567117 0.567117
0.582679 0.582679 0.582679
0.598241 0.598241 0.598241
0.613804 0.613804 0.613804
0.629366 0.629366 0.629366
0.644928 0.644928 0.644928
0.660491 0.660491 0.660491
0.676053 0.676053 0.676053
0.691615 0.691615 0.691615
0.707178 0.707178 0.707178
0.722740 0.722740 0.722740
0.738302 0.738302 0.738302
0.753865 0.753865 0.753865
0.769427 0.769427 0.769427
0.784989 0.784989 0.784989
0.800552 0.800552 0.800552
0.816114 0.816114 0.816114
0.619469 0.619469 0.619469
0.635032 0.635032 0.635032
0.650594 0.650594 0.650594
0.666156 0.666156 0.666156
0.681719 0.681719 0.681719
0.697281 0.697281 0.697281
0.712843 0.712843 0.712843
0.728406 0.728406 0.728406
0.743968 0.743968 0.743968
0.759530 0.759530 0.759530
0.775093 0.775093 0.775093
0.790655 0.790655 0.790655
0.806217 0.806217 0.806217
0.821780 0.821780 0.821780
0.837342 0.837342 0.837342
0.852904 0.852904 0.852904
0.868466 0.868466 0.868466
0.671822 0.671822 0.671822
0.687384 0.687384 0.687384
0.702947 0.702947 0.702947
0.718509 0.718509 0.718509
0.734071 0.734071 0.734071
0.749634 0.749634 0.749634
0.765196 0.765196 0.765196
0.780758 0.780758 0.780758
0.796321 0.796321 0.796321
0.811883 0.811883 0.811883
0.827445 0.827445 0.827445
0.843008 0.843008 0.843008
0.858570 0.858570 0.858570
0.874132 0.874132 0.874132
0.889694 0.889694 0.889694
0.905257 0.905257 0.905257
0.920819 0.920819 0.920819
0.724175 0.724175 0.724175
0.739737 0.739737 0.739737
0.755299 0.755299 0.755299
0.770862 0.770862 0.770862
0.786424 0.786424 0.786424
0.801986 0.801986 0.801986
0.817549 0.817549 0.817549
0.833111 0.833111 0.833111
0.848673 0.848673 0.848673
0.864236 0.864236 0.864236
0.879798 0.879798 0.879798
0.895360 0.895360 0.895360
0.910922 0.910922 0.910922
0.926485 0.926485 0.926485
0.942047 0.942047 0.942047
0.957609 0.957609 0.957609
0.973172 0.973172 0.973172
0.776527 0.776527 0.776527
0.792090 0.792090 0.792090
0.807652 0.807652 0.807652
0.823214 0.823214 0.823214
0.838777 0.838777 0.838777
0.854339 0.854339 0.854339
0.869901 0.869901 0.869901
0.885464 0.885464 0.885464
0.901026 0.901026 0.901026
0.916588 0.916588 0.916588
0.932150 0.932150 0.932150
0.947713 0.947713 0.947713
0.963275 0.963275 0.963275
0.978837 0.978837 0.978837
0.980000 0.980000 0.980000
0.980000 0.980000 0.980000
0.980000 0.980000 0.980000
0.020000 0.020000 0.020000
0.020000 0.020000 0.020000
0.020000 0.020000 0.020000
0.020000 0.020000 0.020000
0.020000 0.020000 0.020000
0.021982 0.021982 0.021982
0.037544 0.037544 0.037544
0.053106 0.053106 0.053106
0.068669 0.068669 0.068669
0.084231 0.084231 0.084231
0.099793 0.099793 0.099793
0.115356 0.115356 0.115356
0.130918 0.130918 0.130918
0.146480 0.146480 0.146480
0.162043 0.162043 0.162043
0.177605 0.177605 0.177605
0.193167 0.193167 0.193167
0.020000 0.020000 0.020000
0.020000 0.020000 0.020000
0.027647 0.027647 0.027647
0.043210 0.043210 0.043210
0.058772 0.058772 0.058772
0.074334 0.074334 0.074334
0.089897 0.089897 0.089897
0.105459 0.105459 0.105459
0.121021 0.121021 0.121021
0.136584 0.136584 0.136584
0.152146 0.152146 0.152146
0.167708 0.167708 0.167708
0.183271 0.183271 0.183271
0.198833 0.198833 0.198833
0.214395 0.214395 0.214395
0.229958 0.229958 0.229958
0.245520 0.245520 0.245520
0.048875 0.048875 0.048875
0.064438 0.064438 0.064438
0.080000 0.080000 0.080000
0.095562 0.095562 0.095562
0.111125 0.111125 0.111125
0.126687 0.126687 0.126687
0.142249 0.142249 0.142249
0.157812 0.157812 0.157812
0.173374 0.173374 0.173374
0.188936 0.188936 0.188936
0.204499 0.204499 0.204499
0.220061 0.220061 0.220061
0.235623 0.235623 0.235623
0.251186 0.251186 0.251186
0.266748 0.266748 0.266748
0.282310 0.282310 0.282310
0.297872 0.297872 0.297872
0.101228 0.101228 0.101228
0.116790 0.116790 0.116790
0.132353 0.132353 0.132353
0.147915 0.147915 0.147915
0.163477 0.163477 0.163477
0.179040 0.179040 0.179040
0.194602 0.194602 0.194602
0.210164 0.210164 0.210164
0.225727 0.225727 0.225727
0.241289 0.241289 0.241289
0.256851 0.256851 0.256851
0.272414 0.272414 0.272414
0.287976 0.287976 0.287976
0.303538 0.303538 0.303538
0.319100 0.319100 0.319100
0.334663 0.334663 0.334663
0.350225 0.350225 0.350225
0.153581 0.153581 0.153581
0.169143 0.169143 0.169143
0.184705 0.184705 0.184705
0.200268 0.200268 0.200268
0.215830 0.215830 0.215830
0.231392 0.231392 0.231392
0.246955 0.246955 0.246955
0.262517 0.262517 0.262517
0.278079 0.278079 0.278079
0.293642 0.293642 0.293642
0.309204 0.309204 0.309204
0.324766 0.324766 0.324766
0.340328 0.340328 0.340328
0.355891 0.355891 0.355891
0.371453 0.371453 0.371453
0.387015 0.387015 0.387015
0.402578 0.402578 0.402578
0.205933 0.205933 0.205933
0.221496 0.221496 0.221496
0.237058 0.237058 0.237058
0.252620 0.252620 0.252620
0.268183 0.268183 0.268183
0.283745 0.283745 0.283745
0.299307 0.299307 0.299307
0.314870 0.314870 0.314870
0.330432 0.330432 0.330432
0.345994 0.345994 0.345994
0.361556 0.361556 0.361556
0.377119 0.377119 0.377119
0.392681 0.392681 0.392681
0.408243 0.408243 0.408243
0.423806 0.423806 0.423806
0.439368 0.439368 0.439368
0.454930 0.454930 0.454930
0.258286 0.258286 0.258286
0.273848 0.273848 0.273848
0.289411 0.289411 0.289411
0.304973 0.304973 0.304973
0.320535 0.320535 0.320535
0.336098 0.336098 0.336098
0.351660 0.351660 0.351660
0.367222 0.367222 0.367222
0.382784 0.382784 0.382784
0.398347 0.398347 0.398347
0.413909 0.413909 0.413909
0.429471 0.429471 0.429471
0.445034 0.445034 0.445034
0.460596 0.460596 0.460596
0.476158 0.476158 0.476158
0.491721 0.491721 0.491721
0.507283 0.507283 0.507283
0.310639 0.310639 0.310639
0.326201 0.326201 0.326201
0.341763 0.341763 0.341763
0.357326 0.357326 0.357326
0.372888 0.372888 0.372888
0.388450 0.388450 0.388450
0.404012 0.404012 0.404012
0.419575 0.419575 0.419575
0.435137 0.435137 0.435137
0.450699 0.450699 0.450699
0.466262 0.466262 0.466262
0.481824 0.481824 0.481824
0.497386 0.497386 0.497386
0.512949 0.512949 0.512949
0.528511 0.528511 0.528511
0.544073 0.544073 0.544073
0.559636 0.559636 0.559636
0.362991 0.362991 0.362991
0.378554 0.378554 0.378554
0.394116 0.394116 0.394116
0.409678 0.409678 0.409678
0.425240 0.425240 0.425240
0.440803 0.440803 0.440803
0.456365 0.456365 0.456365
0.471927 0.471927 0.471927
0.487490 0.487490 0.487490
0.503052 0.503052 0.503052
0.518614 0.518614 0.518614
0.534177 0.534177 0.534177
0.549739 0.549739 0.549739
0.565301 0.565301 0.565301
0.580864 0.580864 0.580864
0.596426 0.596426 0.596426
0.611988 0.611988 0.611988
0.415344 0.415344 0.415344
0.430906 0.430906 0.430906
0.446468 0.446468 0.446468
0.462031 0.462031 0.462031
0.477593 0.477593 0.477593
0.493155 0.493155 0.493155
0.508718 0.508718 0.508718
0.524280 0.524280 0.524280
0.539842 0.539842 0.539842
0.555405 0.555405 0.555405
0.570967 0.570967 0.570967
0.586529 0.586529 0.586529
0.602092 0.602092 0.602092
0.617654 0.617654 0.617654
0.633216 0.633216 0.633216
0.648779 0.648779 0.648779
0.664341 0.664341 0.664341
0.467696 0.467696 0.467696
0.483259 0.483259 0.483259
0.498821 0.498821 0.498821
0.514383 0.514383 0.514383
0.529946 0.529946 0.529946
0.545508 0.545508 0.545508
0.561070 0.561070 0.561070
0.576633 0.576633 0.576633
0.592195 0.592195 0.592195
0.607757 0.607757 0.607757
0.623320 0.623320 0.623320
0.638882 0.638882 0.638882
0.654444 0.654444 0.654444
0.670007 0.670007 0.670007
0.685569 0.685569 0.685569
0.701131 0.701131 0.701131
0.716694 0.716694 0.716694
0.520049 0.520049 0.520049
0.535611 0.535611 0.535611
0.551174 0.551174 0.551174
0.566736 0.566736 0.566736
0.582298 0.582298 0.582298
0.597861 0.597861 0.597861
0.613423 0.613423 0.613423
0.628985 0.628985 0.628985
0.644548 0.644548 0.644548
0.660110 0.660110 0.660110
0.675672 0.675672 0.675672
0.691235 0.691235 0.691235
0.706797 0.706797 0.706797
0.722359 0.722359 0.722359
0.737922 0.737922 0.737922
0.753484 0.753484 0.753484
0.769046 0.769046 0.769046
0.572402 0.572402 0.572402
0.587964 0.587964 0.587964
0.603526 0.603526 0.603526
0.619089 0.619089 0.619089
0.634651 0.634651 0.634651
0.650213 0.650213 0.650213
0.665776 0.665776 0.665776
0.681338 0.681338 0.681338
0.696900 0.696900 0.696900
0.712463 0.712463 0.712463
0.728025 0.728025 0.728025
0.743587 0.743587 0.743587
0.759150 0.759150 0.759150
0.774712 0.774712 0.774712
0.790274 0.790274 0.790274
0.805837 0.805837 0.805837
0.821399 0.821399 0.821399
0.624754 0.624754 0.624754
0.640317 0.640317 0.640317
0.655879 0.655879 0.655879
0.671441 0.671441 0.671441
0.687004 0.687004 0.687004
0.702566 0.702566 0.702566
0.718128 0.718128 0.718128
0.733691 0.733691 0.733691
0.749253 0.749253 0.749253
0.764815 0.764815 0.764815
0.780378 0.780378 0.780378
0.795940 0.795940 0.795940
0.811502 0.811502 0.811502
0.827065 0.827065 0.827065
0.842627 0.842627 0.842627
0.858189 0.858189 0.858189
0.873752 0.873752 0.873752
0.677107 0.677107 0.677107
0.692669 0.692669 0.692669
0.708232 0.708232 0.708232
0.723794 0.723794 0.723794
0.739356 0.739356 0.739356
0.754919 0.754919 0.754919
0.770481 0.770481 0.770481
0.786043 0.786043 0.786043
0.801606 0.801606 0.801606
0.817168 0.817168 0.817168
0.832730 0.832730 0.832730
0.848293 0.848293 0.848293
0.863855 0.863855 0.863855
0.879417 0.879417 0.879417
0.894980 0.894980 0.894980
0.910542 0.910542 0.910542
0.926104 0.926104 0.926104
0.729460 0.729460 0.729460
0.745022 0.745022 0.745022
0.760584 0.760584 0.760584
0.776147 0.776147 0.776147
0.791709 0.791709 0.791709
0.807271 0.807271 0.807271
0.822834 0.822834 0.822834
0.838396 0.838396 0.838396
0.853958 0.853958 0.853958
0.869521 0.869521 0.869521
0.885083 0.885083 0.885083
0.900645 0.900645 0.900645
0.916208 0.916208 0.916208
0.931770 0.931770 0.931770
0.947332 0.947332 0.947332
0.962894 0.962894 0.962894
0.978457 0.978457 0.978457
0.781812 0.781812 0.781812
0.797375 0.797375 0.797375
0.812937 0.812937 0.812937
0.828499 0.828499 0.828499
0.844062 0.844062 0.844062
0.859624 0.859624 0.859624
0.875186 0.875186 0.875186
0.890749 0.890749 0.890749
0.906311 0.906311 0.906311
0.921873 0.921873 0.921873
0.937436 0.937436 0.937436
0.952998 0.952998 0.952998
0.968560 0.968560 0.968560
0.980000 0.980000 0.980000
0.980000 0.980000 0.980000
0.980000 0.980000 0.980000
0.980000 0.980000 0.980000
0.020000 0.020000 0.020000
0.020000 0.020000 0.020000
0.020000 0.020000 0.020000
0.020000 0.020000 0.020000
0.020000 0.020000 0.020000
0.027267 0.027267 0.027267
0.042829 0.042829 0.042829
0.058391 0.058391 0.058391
0.073954 0.073954 0.073954
0.089516 0.089516 0.089516
0.105078 0.105078 0.105078
0.120641 0.120641 0.120641
0.136203 0.136203 0.136203
0.151765 0.151765 0.151765
0.167328 0.167328 0.167328
0.182890 0.182890 0.182890
0.198452 0.198452 0.198452
0.020000 0.020000 0.020000
0.020000 0.020000 0.020000
