packages/engine/assets/luts/noir-film.cube
TITLE "noir-film"
LUT_3D_SIZE 5
DOMAIN_MIN 0 0 0
DOMAIN_MAX 1 1 1
0.020000 0.020000 0.020000
0.020000 0.020000 0.020000
0.058099 0.058099 0.058099
0.120348 0.120348 0.120348
0.182597 0.182597 0.182597
0.143011 0.143011 0.143011
0.205260 0.205260 0.205260
0.267509 0.267509 0.267509
0.329758 0.329758 0.329758
0.392008 0.392008 0.392008
0.352421 0.352421 0.352421
0.414670 0.414670 0.414670
0.476920 0.476920 0.476920
0.539169 0.539169 0.539169
0.601418 0.601418 0.601418
0.561832 0.561832 0.561832
0.624081 0.624081 0.624081
0.686330 0.686330 0.686330
0.748580 0.748580 0.748580
0.810829 0.810829 0.810829
0.771242 0.771242 0.771242
0.833492 0.833492 0.833492
0.895741 0.895741 0.895741
0.957990 0.957990 0.957990
0.980000 0.980000 0.980000
0.020000 0.020000 0.020000
0.020000 0.020000 0.020000
0.079239 0.079239 0.079239
0.141488 0.141488 0.141488
0.203737 0.203737 0.203737
0.164151 0.164151 0.164151
0.226400 0.226400 0.226400
0.288649 0.288649 0.288649
0.350899 0.350899 0.350899
0.413148 0.413148 0.413148
0.373561 0.373561 0.373561
0.435811 0.435811 0.435811
0.498060 0.498060 0.498060
0.560309 0.560309 0.560309
0.622558 0.622558 0.622558
0.582972 0.582972 0.582972
0.645221 0.645221 0.645221
0.707470 0.707470 0.707470
0.769720 0.769720 0.769720
0.831969 0.831969 0.831969
0.792382 0.792382 0.792382
0.854632 0.854632 0.854632
0.916881 0.916881 0.916881
0.979130 0.979130 0.979130
0.980000 0.980000 0.980000
0.020000 0.020000 0.020000
0.038130 0.038130 0.038130
0.100379 0.100379 0.100379
0.162628 0.162628 0.162628
0.224877 0.224877 0.224877
0.185291 0.185291 0.185291
0.247540 0.247540 0.247540
0.309789 0.309789 0.309789
0.372039 0.372039 0.372039
0.434288 0.434288 0.434288
0.394701 0.394701 0.394701
0.456951 0.456951 0.456951
0.519200 0.519200 0.519200
0.581449 0.581449 0.581449
0.643699 0.643699 0.643699
0.604112 0.604112 0.604112
0.666361 0.666361 0.666361
0.728611 0.728611 0.728611
0.790860 0.790860 0.790860
0.853109 0.853109 0.853109
0.813523 0.813523 0.813523
0.875772 0.875772 0.875772
0.938021 0.938021 0.938021
0.980000 0.980000 0.980000
0.980000 0.980000 0.980000
0.020000 0.020000 0.020000
0.059270 0.059270 0.059270
0.121519 0.121519 0.121519
0.183768 0.183768 0.183768
0.246018 0.246018 0.246018
0.206431 0.206431 0.206431
0.268680 0.268680 0.268680
0.330930 0.330930 0.330930
0.393179 0.393179 0.393179
0.455428 0.455428 0.455428
0.415842 0.415842 0.415842
0.478091 0.478091 0.478091
0.540340 0.540340 0.540340
0.602589 0.602589 0.602589
0.664839 0.664839 0.664839
0.625252 0.625252 0.625252
0.687501 0.687501 0.687501
0.749751 0.749751 0.749751
0.812000 0.812000 0.812000
0.874249 0.874249 0.874249
0.834663 0.834663 0.834663
0.896912 0.896912 0.896912
0.959161 0.959161 0.959161
0.980000 0.980000 0.980000
0.980000 0.980000 0.980000
0.020000 0.020000 0.020000
0.080410 0.080410 0.080410
0.142659 0.142659 0.142659
0.204908 0.204908 0.204908
0.267158 0.267158 0.267158
0.227571 0.227571 0.227571
0.289820 0.289820 0.289820
0.352070 0.352070 0.352070
0.414319 0.414319 0.414319
0.476568 0.476568 0.476568
0.436982 0.436982 0.436982
0.499231 0.499231 0.499231
0.561480 0.561480 0.561480
0.623730 0.623730 0.623730
0.685979 0.685979 0.685979
0.646392 0.646392 0.646392
0.708642 0.708642 0.708642
0.770891 0.770891 0.770891
0.833140 0.833140 0.833140
0.895389 0.895389 0.895389
0.855803 0.855803 0.855803
0.918052 0.918052 0.918052
0.980000 0.980000 0.980000
0.980000 0.980000 0.980000
0.980000 0.980000 0.980000
